(G-CODE GENERATED BY FLATCAM v8.991 - www.flatcam.org - Version Date: 2019/12/27)

(Name: Proyecto-Embebidos-1-2 - CADCAM Drill_2.DRL_cnc)
(Type: G-code from Excellon)
(Units: MM)

(Created on Friday, 15 November 2024 at 15:47)

(Feedrate: 250.0 mm/min)
(Feedrate rapids 1500.0 mm/min)

(Z_Cut: -1.8 mm)
(Z_Move: 2.0 mm)
(Z Toolchange: 15.0 mm)
(X,Y Toolchange: 0.0000, 0.0000 mm)
(Z Start: None mm)
(Z End: 0.6 mm)
(Steps per circle: 64)
(Preprocessor Excellon: default)

(X range:  -90.7500 ...   -3.2500  mm)
(Y range:    3.1920 ...   84.7500  mm)

(Spindle Speed: None RPM)
G21
G90
G94




G01 F250.00
G00 Z2.0000

M03
G00 X-76.0400 Y77.7600
G01 Z-1.8000
G01 Z0
G00 Z2.0000
G00 X-76.0400 Y75.2200
G01 Z-1.8000
G01 Z0
G00 Z2.0000
G00 X-73.4800 Y16.4000
G01 Z-1.8000
G01 Z0
G00 Z2.0000
G00 X-78.5800 Y16.4000
G01 Z-1.8000
G01 Z0
G00 Z2.0000
G00 X-78.5800 Y3.7000
G01 Z-1.8000
G01 Z0
G00 Z2.0000
G00 X-73.4800 Y3.7000
G01 Z-1.8000
G01 Z0
G00 Z2.0000
G00 X-60.0200 Y3.7100
G01 Z-1.8000
G01 Z0
G00 Z2.0000
G00 X-54.9200 Y3.7100
G01 Z-1.8000
G01 Z0
G00 Z2.0000
G00 X-60.0200 Y16.4100
G01 Z-1.8000
G01 Z0
G00 Z2.0000
G00 X-54.9200 Y16.4100
G01 Z-1.8000
G01 Z0
G00 Z2.0000
G00 X-41.6300 Y16.4700
G01 Z-1.8000
G01 Z0
G00 Z2.0000
G00 X-36.5300 Y16.4700
G01 Z-1.8000
G01 Z0
G00 Z2.0000
G00 X-41.6300 Y3.7700
G01 Z-1.8000
G01 Z0
G00 Z2.0000
G00 X-36.5300 Y3.7700
G01 Z-1.8000
G01 Z0
G00 Z2.0000
G00 X-23.4000 Y3.7500
G01 Z-1.8000
G01 Z0
G00 Z2.0000
G00 X-18.3000 Y3.7500
G01 Z-1.8000
G01 Z0
G00 Z2.0000
G00 X-18.3000 Y16.4500
G01 Z-1.8000
G01 Z0
G00 Z2.0000
G00 X-23.4000 Y16.4500
G01 Z-1.8000
G01 Z0
G00 Z2.0000
G00 X-32.0800 Y77.1600
G01 Z-1.8000
G01 Z0
G00 Z2.0000
G00 X-32.0800 Y79.7000
G01 Z-1.8000
G01 Z0
G00 Z2.0000
G00 X-40.5500 Y77.1600
G01 Z-1.8000
G01 Z0
G00 Z2.0000
G00 X-40.5500 Y79.7000
G01 Z-1.8000
G01 Z0
G00 Z2.0000
G00 X-48.5700 Y77.1600
G01 Z-1.8000
G01 Z0
G00 Z2.0000
G00 X-48.5700 Y79.7000
G01 Z-1.8000
G01 Z0
G00 Z2.0000
G00 X-56.5800 Y77.1500
G01 Z-1.8000
G01 Z0
G00 Z2.0000
G00 X-56.5800 Y79.6900
G01 Z-1.8000
G01 Z0
G00 Z2.0000
M05
G00 Z0.60
G00 X0.0 Y0.0

