(G-CODE GENERATED BY FLATCAM v8.991 - www.flatcam.org - Version Date: 2019/12/27)

(Name: Proyecto-Embebidos-1-2 - CADCAM Bottom Copper.GBR_ncc_cnc)
(Type: G-code from Geometry)
(Units: MM)

(Created on Friday, 15 November 2024 at 15:41)

(TOOL DIAMETER: 0.12 mm)
(Feedrate: 100.0 mm/min)
(Feedrate_Z: 50.0 mm/min)
(Feedrate rapids 1500.0 mm/min)

(Z_Cut: -0.0567 mm)
(Z_Move: 2.5000000000000004 mm)
(Z Toolchange: 15.0 mm)
(X,Y Toolchange: 0.0000, 0.0000 mm)
(Z Start: None mm)
(Z End: 30.0 mm)
(Steps per circle: 64)
(Preprocessor Geometry: default)

(X range:  -97.1617 ...   -0.3383  mm)
(Y range:    0.3383 ...   86.6617  mm)

(Spindle Speed: None RPM)
G21
G90
G94




G01 F100.00
G00 Z2.5000

M03
G00 X-2.9401 Y7.0029
G01 F50.00
G01 Z-0.0567
G01 F100.00
G01 X-2.9497 Y7.1990
G01 X-2.9503 Y7.2048
G01 X-2.9791 Y7.3990
G01 X-2.9802 Y7.4048
G01 X-3.0279 Y7.5951
G01 X-3.0296 Y7.6008
G01 X-3.0957 Y7.7856
G01 X-3.0980 Y7.7910
G01 X-3.1819 Y7.9684
G01 X-3.1847 Y7.9736
G01 X-3.2856 Y8.1420
G01 X-3.2889 Y8.1469
G01 X-3.4058 Y8.3045
G01 X-3.4095 Y8.3091
G01 X-3.5413 Y8.4545
G01 X-3.5455 Y8.4587
G01 X-3.6909 Y8.5905
G01 X-3.6955 Y8.5942
G01 X-3.8531 Y8.7111
G01 X-3.8580 Y8.7144
G01 X-4.0264 Y8.8153
G01 X-4.0316 Y8.8181
G01 X-4.2090 Y8.9020
G01 X-4.2144 Y8.9043
G01 X-4.3992 Y8.9704
G01 X-4.4049 Y8.9721
G01 X-4.5952 Y9.0198
G01 X-4.6010 Y9.0209
G01 X-4.7952 Y9.0497
G01 X-4.8010 Y9.0503
G01 X-4.9971 Y9.0599
G01 X-5.0029 Y9.0599
G01 X-5.1990 Y9.0503
G01 X-5.2048 Y9.0497
G01 X-5.3990 Y9.0209
G01 X-5.4048 Y9.0198
G01 X-5.5951 Y8.9721
G01 X-5.6008 Y8.9704
G01 X-5.7856 Y8.9043
G01 X-5.7910 Y8.9020
G01 X-5.9684 Y8.8181
G01 X-5.9736 Y8.8153
G01 X-6.1420 Y8.7144
G01 X-6.1469 Y8.7111
G01 X-6.3045 Y8.5942
G01 X-6.3091 Y8.5905
G01 X-6.4545 Y8.4587
G01 X-6.4587 Y8.4545
G01 X-6.5905 Y8.3091
G01 X-6.5942 Y8.3045
G01 X-6.7111 Y8.1469
G01 X-6.7144 Y8.1420
G01 X-6.8153 Y7.9736
G01 X-6.8181 Y7.9684
G01 X-6.9020 Y7.7910
G01 X-6.9043 Y7.7856
G01 X-6.9704 Y7.6008
G01 X-6.9721 Y7.5951
G01 X-7.0198 Y7.4048
G01 X-7.0209 Y7.3990
G01 X-7.0497 Y7.2048
G01 X-7.0503 Y7.1990
G01 X-7.0599 Y7.0029
G01 X-7.0599 Y6.9971
G01 X-7.0503 Y6.8010
G01 X-7.0497 Y6.7952
G01 X-7.0209 Y6.6010
G01 X-7.0198 Y6.5952
G01 X-6.9721 Y6.4049
G01 X-6.9704 Y6.3992
G01 X-6.9043 Y6.2144
G01 X-6.9020 Y6.2090
G01 X-6.8181 Y6.0316
G01 X-6.8153 Y6.0264
G01 X-6.7144 Y5.8580
G01 X-6.7111 Y5.8531
G01 X-6.5942 Y5.6955
G01 X-6.5905 Y5.6909
G01 X-6.4587 Y5.5455
G01 X-6.4545 Y5.5413
G01 X-6.3091 Y5.4095
G01 X-6.3045 Y5.4058
G01 X-6.1469 Y5.2889
G01 X-6.1420 Y5.2856
G01 X-5.9736 Y5.1847
G01 X-5.9684 Y5.1819
G01 X-5.7910 Y5.0980
G01 X-5.7856 Y5.0957
G01 X-5.6008 Y5.0296
G01 X-5.5951 Y5.0279
G01 X-5.4048 Y4.9802
G01 X-5.3990 Y4.9791
G01 X-5.2048 Y4.9503
G01 X-5.1990 Y4.9497
G01 X-5.0029 Y4.9401
G01 X-4.9971 Y4.9401
G01 X-4.8010 Y4.9497
G01 X-4.7952 Y4.9503
G01 X-4.6010 Y4.9791
G01 X-4.5952 Y4.9802
G01 X-4.4049 Y5.0279
G01 X-4.3992 Y5.0296
G01 X-4.2144 Y5.0957
G01 X-4.2090 Y5.0980
G01 X-4.0316 Y5.1819
G01 X-4.0264 Y5.1847
G01 X-3.8580 Y5.2856
G01 X-3.8531 Y5.2889
G01 X-3.6955 Y5.4058
G01 X-3.6909 Y5.4095
G01 X-3.5455 Y5.5413
G01 X-3.5413 Y5.5455
G01 X-3.4095 Y5.6909
G01 X-3.4058 Y5.6955
G01 X-3.2889 Y5.8531
G01 X-3.2856 Y5.8580
G01 X-3.1847 Y6.0264
G01 X-3.1819 Y6.0316
G01 X-3.0980 Y6.2090
G01 X-3.0957 Y6.2144
G01 X-3.0296 Y6.3992
G01 X-3.0279 Y6.4049
G01 X-2.9802 Y6.5952
G01 X-2.9791 Y6.6010
G01 X-2.9503 Y6.7952
G01 X-2.9497 Y6.8010
G01 X-2.9401 Y6.9971
G01 X-2.9401 Y7.0029
G00 Z2.5000
G00 X-17.2241 Y3.7529
G01 F50.00
G01 Z-0.0567
G01 F100.00
G01 X-17.2290 Y3.8525
G01 X-17.2295 Y3.8584
G01 X-17.2442 Y3.9570
G01 X-17.2453 Y3.9628
G01 X-17.2695 Y4.0595
G01 X-17.2713 Y4.0651
G01 X-17.3048 Y4.1590
G01 X-17.3071 Y4.1645
G01 X-17.3497 Y4.2546
G01 X-17.3525 Y4.2598
G01 X-17.4038 Y4.3453
G01 X-17.4070 Y4.3502
G01 X-17.4664 Y4.4303
G01 X-17.4702 Y4.4348
G01 X-17.5371 Y4.5087
G01 X-17.5413 Y4.5129
G01 X-17.6152 Y4.5798
G01 X-17.6197 Y4.5836
G01 X-17.6998 Y4.6430
G01 X-17.7047 Y4.6462
G01 X-17.7902 Y4.6975
G01 X-17.7954 Y4.7003
G01 X-17.8855 Y4.7429
G01 X-17.8910 Y4.7452
G01 X-17.9849 Y4.7787
G01 X-17.9905 Y4.7805
G01 X-18.0872 Y4.8047
G01 X-18.0930 Y4.8058
G01 X-18.1916 Y4.8205
G01 X-18.1975 Y4.8210
G01 X-18.2971 Y4.8259
G01 X-18.3029 Y4.8259
G01 X-18.4025 Y4.8210
G01 X-18.4084 Y4.8205
G01 X-18.5070 Y4.8058
G01 X-18.5128 Y4.8047
G01 X-18.6095 Y4.7805
G01 X-18.6151 Y4.7787
G01 X-18.7090 Y4.7452
G01 X-18.7145 Y4.7429
G01 X-18.8046 Y4.7003
G01 X-18.8098 Y4.6975
G01 X-18.8953 Y4.6462
G01 X-18.9002 Y4.6430
G01 X-18.9803 Y4.5836
G01 X-18.9848 Y4.5798
G01 X-19.0587 Y4.5129
G01 X-19.0629 Y4.5087
G01 X-19.1298 Y4.4348
G01 X-19.1336 Y4.4303
G01 X-19.1930 Y4.3502
G01 X-19.1962 Y4.3453
G01 X-19.2475 Y4.2598
G01 X-19.2503 Y4.2546
G01 X-19.2929 Y4.1645
G01 X-19.2952 Y4.1590
G01 X-19.3287 Y4.0651
G01 X-19.3305 Y4.0595
G01 X-19.3547 Y3.9628
G01 X-19.3558 Y3.9570
G01 X-19.3705 Y3.8584
G01 X-19.3710 Y3.8525
G01 X-19.3759 Y3.7529
G01 X-19.3759 Y3.7471
G01 X-19.3710 Y3.6475
G01 X-19.3705 Y3.6416
G01 X-19.3558 Y3.5430
G01 X-19.3547 Y3.5372
G01 X-19.3305 Y3.4405
G01 X-19.3287 Y3.4349
G01 X-19.2952 Y3.3410
G01 X-19.2929 Y3.3355
G01 X-19.2503 Y3.2454
G01 X-19.2475 Y3.2402
G01 X-19.1962 Y3.1547
G01 X-19.1930 Y3.1498
G01 X-19.1336 Y3.0697
G01 X-19.1298 Y3.0652
G01 X-19.0629 Y2.9913
G01 X-19.0587 Y2.9871
G01 X-18.9848 Y2.9202
G01 X-18.9803 Y2.9164
G01 X-18.9002 Y2.8570
G01 X-18.8953 Y2.8538
G01 X-18.8098 Y2.8025
G01 X-18.8046 Y2.7997
G01 X-18.7145 Y2.7571
G01 X-18.7090 Y2.7548
G01 X-18.6151 Y2.7213
G01 X-18.6095 Y2.7195
G01 X-18.5128 Y2.6953
G01 X-18.5070 Y2.6942
G01 X-18.4084 Y2.6795
G01 X-18.4025 Y2.6790
G01 X-18.3029 Y2.6741
G01 X-18.2971 Y2.6741
G01 X-18.1975 Y2.6790
G01 X-18.1916 Y2.6795
G01 X-18.0930 Y2.6942
G01 X-18.0872 Y2.6953
G01 X-17.9905 Y2.7195
G01 X-17.9849 Y2.7213
G01 X-17.8910 Y2.7548
G01 X-17.8855 Y2.7571
G01 X-17.7954 Y2.7997
G01 X-17.7902 Y2.8025
G01 X-17.7047 Y2.8538
G01 X-17.6998 Y2.8570
G01 X-17.6197 Y2.9164
G01 X-17.6152 Y2.9202
G01 X-17.5413 Y2.9871
G01 X-17.5371 Y2.9913
G01 X-17.4702 Y3.0652
G01 X-17.4664 Y3.0697
G01 X-17.4070 Y3.1498
G01 X-17.4038 Y3.1547
G01 X-17.3525 Y3.2402
G01 X-17.3497 Y3.2454
G01 X-17.3071 Y3.3355
G01 X-17.3048 Y3.3410
G01 X-17.2713 Y3.4349
G01 X-17.2695 Y3.4405
G01 X-17.2453 Y3.5372
G01 X-17.2442 Y3.5430
G01 X-17.2295 Y3.6416
G01 X-17.2290 Y3.6475
G01 X-17.2241 Y3.7471
G01 X-17.2241 Y3.7529
G00 Z2.5000
G00 X-22.3241 Y3.7529
G01 F50.00
G01 Z-0.0567
G01 F100.00
G01 X-22.3290 Y3.8525
G01 X-22.3295 Y3.8584
G01 X-22.3442 Y3.9570
G01 X-22.3453 Y3.9628
G01 X-22.3695 Y4.0595
G01 X-22.3713 Y4.0651
G01 X-22.4048 Y4.1590
G01 X-22.4071 Y4.1645
G01 X-22.4497 Y4.2546
G01 X-22.4525 Y4.2598
G01 X-22.5038 Y4.3453
G01 X-22.5070 Y4.3502
G01 X-22.5664 Y4.4303
G01 X-22.5702 Y4.4348
G01 X-22.6371 Y4.5087
G01 X-22.6413 Y4.5129
G01 X-22.7152 Y4.5798
G01 X-22.7197 Y4.5836
G01 X-22.7998 Y4.6430
G01 X-22.8047 Y4.6462
G01 X-22.8902 Y4.6975
G01 X-22.8954 Y4.7003
G01 X-22.9855 Y4.7429
G01 X-22.9910 Y4.7452
G01 X-23.0849 Y4.7787
G01 X-23.0905 Y4.7805
G01 X-23.1872 Y4.8047
G01 X-23.1930 Y4.8058
G01 X-23.2916 Y4.8205
G01 X-23.2975 Y4.8210
G01 X-23.3971 Y4.8259
G01 X-23.4029 Y4.8259
G01 X-23.5025 Y4.8210
G01 X-23.5084 Y4.8205
G01 X-23.6070 Y4.8058
G01 X-23.6128 Y4.8047
G01 X-23.7095 Y4.7805
G01 X-23.7151 Y4.7787
G01 X-23.8090 Y4.7452
G01 X-23.8145 Y4.7429
G01 X-23.9046 Y4.7003
G01 X-23.9098 Y4.6975
G01 X-23.9953 Y4.6462
G01 X-24.0002 Y4.6430
G01 X-24.0803 Y4.5836
G01 X-24.0848 Y4.5798
G01 X-24.1587 Y4.5129
G01 X-24.1629 Y4.5087
G01 X-24.2298 Y4.4348
G01 X-24.2336 Y4.4303
G01 X-24.2930 Y4.3502
G01 X-24.2962 Y4.3453
G01 X-24.3475 Y4.2598
G01 X-24.3503 Y4.2546
G01 X-24.3929 Y4.1645
G01 X-24.3952 Y4.1590
G01 X-24.4287 Y4.0651
G01 X-24.4305 Y4.0595
G01 X-24.4547 Y3.9628
G01 X-24.4558 Y3.9570
G01 X-24.4705 Y3.8584
G01 X-24.4710 Y3.8525
G01 X-24.4759 Y3.7529
G01 X-24.4759 Y3.7471
G01 X-24.4710 Y3.6475
G01 X-24.4705 Y3.6416
G01 X-24.4558 Y3.5430
G01 X-24.4547 Y3.5372
G01 X-24.4305 Y3.4405
G01 X-24.4287 Y3.4349
G01 X-24.3952 Y3.3410
G01 X-24.3929 Y3.3355
G01 X-24.3503 Y3.2454
G01 X-24.3475 Y3.2402
G01 X-24.2962 Y3.1547
G01 X-24.2930 Y3.1498
G01 X-24.2336 Y3.0697
G01 X-24.2298 Y3.0652
G01 X-24.1629 Y2.9913
G01 X-24.1587 Y2.9871
G01 X-24.0848 Y2.9202
G01 X-24.0803 Y2.9164
G01 X-24.0002 Y2.8570
G01 X-23.9953 Y2.8538
G01 X-23.9098 Y2.8025
G01 X-23.9046 Y2.7997
G01 X-23.8145 Y2.7571
G01 X-23.8090 Y2.7548
G01 X-23.7151 Y2.7213
G01 X-23.7095 Y2.7195
G01 X-23.6128 Y2.6953
G01 X-23.6070 Y2.6942
G01 X-23.5084 Y2.6795
G01 X-23.5025 Y2.6790
G01 X-23.4029 Y2.6741
G01 X-23.3971 Y2.6741
G01 X-23.2975 Y2.6790
G01 X-23.2916 Y2.6795
G01 X-23.1930 Y2.6942
G01 X-23.1872 Y2.6953
G01 X-23.0905 Y2.7195
G01 X-23.0849 Y2.7213
G01 X-22.9910 Y2.7548
G01 X-22.9855 Y2.7571
G01 X-22.8954 Y2.7997
G01 X-22.8902 Y2.8025
G01 X-22.8047 Y2.8538
G01 X-22.7998 Y2.8570
G01 X-22.7197 Y2.9164
G01 X-22.7152 Y2.9202
G01 X-22.6413 Y2.9871
G01 X-22.6371 Y2.9913
G01 X-22.5702 Y3.0652
G01 X-22.5664 Y3.0697
G01 X-22.5070 Y3.1498
G01 X-22.5038 Y3.1547
G01 X-22.4525 Y3.2402
G01 X-22.4497 Y3.2454
G01 X-22.4071 Y3.3355
G01 X-22.4048 Y3.3410
G01 X-22.3713 Y3.4349
G01 X-22.3695 Y3.4405
G01 X-22.3453 Y3.5372
G01 X-22.3442 Y3.5430
G01 X-22.3295 Y3.6416
G01 X-22.3290 Y3.6475
G01 X-22.3241 Y3.7471
G01 X-22.3241 Y3.7529
G00 Z2.5000
G00 X-35.4541 Y3.7729
G01 F50.00
G01 Z-0.0567
G01 F100.00
G01 X-35.4590 Y3.8725
G01 X-35.4595 Y3.8784
G01 X-35.4742 Y3.9770
G01 X-35.4753 Y3.9828
G01 X-35.4995 Y4.0795
G01 X-35.5013 Y4.0851
G01 X-35.5348 Y4.1790
G01 X-35.5371 Y4.1845
G01 X-35.5797 Y4.2746
G01 X-35.5825 Y4.2798
G01 X-35.6338 Y4.3653
G01 X-35.6370 Y4.3702
G01 X-35.6964 Y4.4503
G01 X-35.7002 Y4.4548
G01 X-35.7671 Y4.5287
G01 X-35.7713 Y4.5329
G01 X-35.8452 Y4.5998
G01 X-35.8497 Y4.6036
G01 X-35.9298 Y4.6630
G01 X-35.9347 Y4.6662
G01 X-36.0202 Y4.7175
G01 X-36.0254 Y4.7203
G01 X-36.1155 Y4.7629
G01 X-36.1210 Y4.7652
G01 X-36.2149 Y4.7987
G01 X-36.2205 Y4.8005
G01 X-36.3172 Y4.8247
G01 X-36.3230 Y4.8258
G01 X-36.4216 Y4.8405
G01 X-36.4275 Y4.8410
G01 X-36.5271 Y4.8459
G01 X-36.5329 Y4.8459
G01 X-36.6325 Y4.8410
G01 X-36.6384 Y4.8405
G01 X-36.7370 Y4.8258
G01 X-36.7428 Y4.8247
G01 X-36.8395 Y4.8005
G01 X-36.8451 Y4.7987
G01 X-36.9390 Y4.7652
G01 X-36.9445 Y4.7629
G01 X-37.0346 Y4.7203
G01 X-37.0398 Y4.7175
G01 X-37.1253 Y4.6662
G01 X-37.1302 Y4.6630
G01 X-37.2103 Y4.6036
G01 X-37.2148 Y4.5998
G01 X-37.2887 Y4.5329
G01 X-37.2929 Y4.5287
G01 X-37.3598 Y4.4548
G01 X-37.3636 Y4.4503
G01 X-37.4230 Y4.3702
G01 X-37.4262 Y4.3653
G01 X-37.4775 Y4.2798
G01 X-37.4803 Y4.2746
G01 X-37.5229 Y4.1845
G01 X-37.5252 Y4.1790
G01 X-37.5587 Y4.0851
G01 X-37.5605 Y4.0795
G01 X-37.5847 Y3.9828
G01 X-37.5858 Y3.9770
G01 X-37.6005 Y3.8784
G01 X-37.6010 Y3.8725
G01 X-37.6059 Y3.7729
G01 X-37.6059 Y3.7671
G01 X-37.6010 Y3.6675
G01 X-37.6005 Y3.6616
G01 X-37.5858 Y3.5630
G01 X-37.5847 Y3.5572
G01 X-37.5605 Y3.4605
G01 X-37.5587 Y3.4549
G01 X-37.5252 Y3.3610
G01 X-37.5229 Y3.3555
G01 X-37.4803 Y3.2654
G01 X-37.4775 Y3.2602
G01 X-37.4262 Y3.1747
G01 X-37.4230 Y3.1698
G01 X-37.3636 Y3.0897
G01 X-37.3598 Y3.0852
G01 X-37.2929 Y3.0113
G01 X-37.2887 Y3.0071
G01 X-37.2148 Y2.9402
G01 X-37.2103 Y2.9364
G01 X-37.1302 Y2.8770
G01 X-37.1253 Y2.8738
G01 X-37.0398 Y2.8225
G01 X-37.0346 Y2.8197
G01 X-36.9445 Y2.7771
G01 X-36.9390 Y2.7748
G01 X-36.8451 Y2.7413
G01 X-36.8395 Y2.7395
G01 X-36.7428 Y2.7153
G01 X-36.7370 Y2.7142
G01 X-36.6384 Y2.6995
G01 X-36.6325 Y2.6990
G01 X-36.5329 Y2.6941
G01 X-36.5271 Y2.6941
G01 X-36.4275 Y2.6990
G01 X-36.4216 Y2.6995
G01 X-36.3230 Y2.7142
G01 X-36.3172 Y2.7153
G01 X-36.2205 Y2.7395
G01 X-36.2149 Y2.7413
G01 X-36.1210 Y2.7748
G01 X-36.1155 Y2.7771
G01 X-36.0254 Y2.8197
G01 X-36.0202 Y2.8225
G01 X-35.9347 Y2.8738
G01 X-35.9298 Y2.8770
G01 X-35.8497 Y2.9364
G01 X-35.8452 Y2.9402
G01 X-35.7713 Y3.0071
G01 X-35.7671 Y3.0113
G01 X-35.7002 Y3.0852
G01 X-35.6964 Y3.0897
G01 X-35.6370 Y3.1698
G01 X-35.6338 Y3.1747
G01 X-35.5825 Y3.2602
G01 X-35.5797 Y3.2654
G01 X-35.5371 Y3.3555
G01 X-35.5348 Y3.3610
G01 X-35.5013 Y3.4549
G01 X-35.4995 Y3.4605
G01 X-35.4753 Y3.5572
G01 X-35.4742 Y3.5630
G01 X-35.4595 Y3.6616
G01 X-35.4590 Y3.6675
G01 X-35.4541 Y3.7671
G01 X-35.4541 Y3.7729
G00 Z2.5000
G00 X-40.5541 Y3.7729
G01 F50.00
G01 Z-0.0567
G01 F100.00
G01 X-40.5590 Y3.8725
G01 X-40.5595 Y3.8784
G01 X-40.5742 Y3.9770
G01 X-40.5753 Y3.9828
G01 X-40.5995 Y4.0795
G01 X-40.6013 Y4.0851
G01 X-40.6348 Y4.1790
G01 X-40.6371 Y4.1845
G01 X-40.6797 Y4.2746
G01 X-40.6825 Y4.2798
G01 X-40.7338 Y4.3653
G01 X-40.7370 Y4.3702
G01 X-40.7964 Y4.4503
G01 X-40.8002 Y4.4548
G01 X-40.8671 Y4.5287
G01 X-40.8713 Y4.5329
G01 X-40.9452 Y4.5998
G01 X-40.9497 Y4.6036
G01 X-41.0298 Y4.6630
G01 X-41.0347 Y4.6662
G01 X-41.1202 Y4.7175
G01 X-41.1254 Y4.7203
G01 X-41.2155 Y4.7629
G01 X-41.2210 Y4.7652
G01 X-41.3149 Y4.7987
G01 X-41.3205 Y4.8005
G01 X-41.4172 Y4.8247
G01 X-41.4230 Y4.8258
G01 X-41.5216 Y4.8405
G01 X-41.5275 Y4.8410
G01 X-41.6271 Y4.8459
G01 X-41.6329 Y4.8459
G01 X-41.7325 Y4.8410
G01 X-41.7384 Y4.8405
G01 X-41.8370 Y4.8258
G01 X-41.8428 Y4.8247
G01 X-41.9395 Y4.8005
G01 X-41.9451 Y4.7987
G01 X-42.0390 Y4.7652
G01 X-42.0445 Y4.7629
G01 X-42.1346 Y4.7203
G01 X-42.1398 Y4.7175
G01 X-42.2253 Y4.6662
G01 X-42.2302 Y4.6630
G01 X-42.3103 Y4.6036
G01 X-42.3148 Y4.5998
G01 X-42.3887 Y4.5329
G01 X-42.3929 Y4.5287
G01 X-42.4598 Y4.4548
G01 X-42.4636 Y4.4503
G01 X-42.5230 Y4.3702
G01 X-42.5262 Y4.3653
G01 X-42.5775 Y4.2798
G01 X-42.5803 Y4.2746
G01 X-42.6229 Y4.1845
G01 X-42.6252 Y4.1790
G01 X-42.6587 Y4.0851
G01 X-42.6605 Y4.0795
G01 X-42.6847 Y3.9828
G01 X-42.6858 Y3.9770
G01 X-42.7005 Y3.8784
G01 X-42.7010 Y3.8725
G01 X-42.7059 Y3.7729
G01 X-42.7059 Y3.7671
G01 X-42.7010 Y3.6675
G01 X-42.7005 Y3.6616
G01 X-42.6858 Y3.5630
G01 X-42.6847 Y3.5572
G01 X-42.6605 Y3.4605
G01 X-42.6587 Y3.4549
G01 X-42.6252 Y3.3610
G01 X-42.6229 Y3.3555
G01 X-42.5803 Y3.2654
G01 X-42.5775 Y3.2602
G01 X-42.5262 Y3.1747
G01 X-42.5230 Y3.1698
G01 X-42.4636 Y3.0897
G01 X-42.4598 Y3.0852
G01 X-42.3929 Y3.0113
G01 X-42.3887 Y3.0071
G01 X-42.3148 Y2.9402
G01 X-42.3103 Y2.9364
G01 X-42.2302 Y2.8770
G01 X-42.2253 Y2.8738
G01 X-42.1398 Y2.8225
G01 X-42.1346 Y2.8197
G01 X-42.0445 Y2.7771
G01 X-42.0390 Y2.7748
G01 X-41.9451 Y2.7413
G01 X-41.9395 Y2.7395
G01 X-41.8428 Y2.7153
G01 X-41.8370 Y2.7142
G01 X-41.7384 Y2.6995
G01 X-41.7325 Y2.6990
G01 X-41.6329 Y2.6941
G01 X-41.6271 Y2.6941
G01 X-41.5275 Y2.6990
G01 X-41.5216 Y2.6995
G01 X-41.4230 Y2.7142
G01 X-41.4172 Y2.7153
G01 X-41.3205 Y2.7395
G01 X-41.3149 Y2.7413
G01 X-41.2210 Y2.7748
G01 X-41.2155 Y2.7771
G01 X-41.1254 Y2.8197
G01 X-41.1202 Y2.8225
G01 X-41.0347 Y2.8738
G01 X-41.0298 Y2.8770
G01 X-40.9497 Y2.9364
G01 X-40.9452 Y2.9402
G01 X-40.8713 Y3.0071
G01 X-40.8671 Y3.0113
G01 X-40.8002 Y3.0852
G01 X-40.7964 Y3.0897
G01 X-40.7370 Y3.1698
G01 X-40.7338 Y3.1747
G01 X-40.6825 Y3.2602
G01 X-40.6797 Y3.2654
G01 X-40.6371 Y3.3555
G01 X-40.6348 Y3.3610
G01 X-40.6013 Y3.4549
G01 X-40.5995 Y3.4605
G01 X-40.5753 Y3.5572
G01 X-40.5742 Y3.5630
G01 X-40.5595 Y3.6616
G01 X-40.5590 Y3.6675
G01 X-40.5541 Y3.7671
G01 X-40.5541 Y3.7729
G00 Z2.5000
G00 X-53.8441 Y3.7129
G01 F50.00
G01 Z-0.0567
G01 F100.00
G01 X-53.8490 Y3.8125
G01 X-53.8495 Y3.8184
G01 X-53.8642 Y3.9170
G01 X-53.8653 Y3.9228
G01 X-53.8895 Y4.0195
G01 X-53.8913 Y4.0251
G01 X-53.9248 Y4.1190
G01 X-53.9271 Y4.1245
G01 X-53.9697 Y4.2146
G01 X-53.9725 Y4.2198
G01 X-54.0238 Y4.3053
G01 X-54.0270 Y4.3102
G01 X-54.0864 Y4.3903
G01 X-54.0902 Y4.3948
G01 X-54.1571 Y4.4687
G01 X-54.1613 Y4.4729
G01 X-54.2352 Y4.5398
G01 X-54.2397 Y4.5436
G01 X-54.3198 Y4.6030
G01 X-54.3247 Y4.6062
G01 X-54.4102 Y4.6575
G01 X-54.4154 Y4.6603
G01 X-54.5055 Y4.7029
G01 X-54.5110 Y4.7052
G01 X-54.6049 Y4.7387
G01 X-54.6105 Y4.7405
G01 X-54.7072 Y4.7647
G01 X-54.7130 Y4.7658
G01 X-54.8116 Y4.7805
G01 X-54.8175 Y4.7810
G01 X-54.9171 Y4.7859
G01 X-54.9229 Y4.7859
G01 X-55.0225 Y4.7810
G01 X-55.0284 Y4.7805
G01 X-55.1270 Y4.7658
G01 X-55.1328 Y4.7647
G01 X-55.2295 Y4.7405
G01 X-55.2351 Y4.7387
G01 X-55.3290 Y4.7052
G01 X-55.3345 Y4.7029
G01 X-55.4246 Y4.6603
G01 X-55.4298 Y4.6575
G01 X-55.5153 Y4.6062
G01 X-55.5202 Y4.6030
G01 X-55.6003 Y4.5436
G01 X-55.6048 Y4.5398
G01 X-55.6787 Y4.4729
G01 X-55.6829 Y4.4687
G01 X-55.7498 Y4.3948
G01 X-55.7536 Y4.3903
G01 X-55.8130 Y4.3102
G01 X-55.8162 Y4.3053
G01 X-55.8675 Y4.2198
G01 X-55.8703 Y4.2146
G01 X-55.9129 Y4.1245
G01 X-55.9152 Y4.1190
G01 X-55.9487 Y4.0251
G01 X-55.9505 Y4.0195
G01 X-55.9747 Y3.9228
G01 X-55.9758 Y3.9170
G01 X-55.9905 Y3.8184
G01 X-55.9910 Y3.8125
G01 X-55.9959 Y3.7129
G01 X-55.9959 Y3.7071
G01 X-55.9910 Y3.6075
G01 X-55.9905 Y3.6016
G01 X-55.9758 Y3.5030
G01 X-55.9747 Y3.4972
G01 X-55.9505 Y3.4005
G01 X-55.9487 Y3.3949
G01 X-55.9152 Y3.3010
G01 X-55.9129 Y3.2955
G01 X-55.8703 Y3.2054
G01 X-55.8675 Y3.2002
G01 X-55.8162 Y3.1147
G01 X-55.8130 Y3.1098
G01 X-55.7536 Y3.0297
G01 X-55.7498 Y3.0252
G01 X-55.6829 Y2.9513
G01 X-55.6787 Y2.9471
G01 X-55.6048 Y2.8802
G01 X-55.6003 Y2.8764
G01 X-55.5202 Y2.8170
G01 X-55.5153 Y2.8138
G01 X-55.4298 Y2.7625
G01 X-55.4246 Y2.7597
G01 X-55.3345 Y2.7171
G01 X-55.3290 Y2.7148
G01 X-55.2351 Y2.6813
G01 X-55.2295 Y2.6795
G01 X-55.1328 Y2.6553
G01 X-55.1270 Y2.6542
G01 X-55.0284 Y2.6395
G01 X-55.0225 Y2.6390
G01 X-54.9229 Y2.6341
G01 X-54.9171 Y2.6341
G01 X-54.8175 Y2.6390
G01 X-54.8116 Y2.6395
G01 X-54.7130 Y2.6542
G01 X-54.7072 Y2.6553
G01 X-54.6105 Y2.6795
G01 X-54.6049 Y2.6813
G01 X-54.5110 Y2.7148
G01 X-54.5055 Y2.7171
G01 X-54.4154 Y2.7597
G01 X-54.4102 Y2.7625
G01 X-54.3247 Y2.8138
G01 X-54.3198 Y2.8170
G01 X-54.2397 Y2.8764
G01 X-54.2352 Y2.8802
G01 X-54.1613 Y2.9471
G01 X-54.1571 Y2.9513
G01 X-54.0902 Y3.0252
G01 X-54.0864 Y3.0297
G01 X-54.0270 Y3.1098
G01 X-54.0238 Y3.1147
G01 X-53.9725 Y3.2002
G01 X-53.9697 Y3.2054
G01 X-53.9271 Y3.2955
G01 X-53.9248 Y3.3010
G01 X-53.8913 Y3.3949
G01 X-53.8895 Y3.4005
G01 X-53.8653 Y3.4972
G01 X-53.8642 Y3.5030
G01 X-53.8495 Y3.6016
G01 X-53.8490 Y3.6075
G01 X-53.8441 Y3.7071
G01 X-53.8441 Y3.7129
G00 Z2.5000
G00 X-58.9441 Y3.7129
G01 F50.00
G01 Z-0.0567
G01 F100.00
G01 X-58.9490 Y3.8125
G01 X-58.9495 Y3.8184
G01 X-58.9642 Y3.9170
G01 X-58.9653 Y3.9228
G01 X-58.9895 Y4.0195
G01 X-58.9913 Y4.0251
G01 X-59.0248 Y4.1190
G01 X-59.0271 Y4.1245
G01 X-59.0697 Y4.2146
G01 X-59.0725 Y4.2198
G01 X-59.1238 Y4.3053
G01 X-59.1270 Y4.3102
G01 X-59.1864 Y4.3903
G01 X-59.1902 Y4.3948
G01 X-59.2571 Y4.4687
G01 X-59.2613 Y4.4729
G01 X-59.3352 Y4.5398
G01 X-59.3397 Y4.5436
G01 X-59.4198 Y4.6030
G01 X-59.4247 Y4.6062
G01 X-59.5102 Y4.6575
G01 X-59.5154 Y4.6603
G01 X-59.6055 Y4.7029
G01 X-59.6110 Y4.7052
G01 X-59.7049 Y4.7387
G01 X-59.7105 Y4.7405
G01 X-59.8072 Y4.7647
G01 X-59.8130 Y4.7658
G01 X-59.9116 Y4.7805
G01 X-59.9175 Y4.7810
G01 X-60.0171 Y4.7859
G01 X-60.0229 Y4.7859
G01 X-60.1225 Y4.7810
G01 X-60.1284 Y4.7805
G01 X-60.2270 Y4.7658
G01 X-60.2328 Y4.7647
G01 X-60.3295 Y4.7405
G01 X-60.3351 Y4.7387
G01 X-60.4290 Y4.7052
G01 X-60.4345 Y4.7029
G01 X-60.5246 Y4.6603
G01 X-60.5298 Y4.6575
G01 X-60.6153 Y4.6062
G01 X-60.6202 Y4.6030
G01 X-60.7003 Y4.5436
G01 X-60.7048 Y4.5398
G01 X-60.7787 Y4.4729
G01 X-60.7829 Y4.4687
G01 X-60.8498 Y4.3948
G01 X-60.8536 Y4.3903
G01 X-60.9130 Y4.3102
G01 X-60.9162 Y4.3053
G01 X-60.9675 Y4.2198
G01 X-60.9703 Y4.2146
G01 X-61.0129 Y4.1245
G01 X-61.0152 Y4.1190
G01 X-61.0487 Y4.0251
G01 X-61.0505 Y4.0195
G01 X-61.0747 Y3.9228
G01 X-61.0758 Y3.9170
G01 X-61.0905 Y3.8184
G01 X-61.0910 Y3.8125
G01 X-61.0959 Y3.7129
G01 X-61.0959 Y3.7071
G01 X-61.0910 Y3.6075
G01 X-61.0905 Y3.6016
G01 X-61.0758 Y3.5030
G01 X-61.0747 Y3.4972
G01 X-61.0505 Y3.4005
G01 X-61.0487 Y3.3949
G01 X-61.0152 Y3.3010
G01 X-61.0129 Y3.2955
G01 X-60.9703 Y3.2054
G01 X-60.9675 Y3.2002
G01 X-60.9162 Y3.1147
G01 X-60.9130 Y3.1098
G01 X-60.8536 Y3.0297
G01 X-60.8498 Y3.0252
G01 X-60.7829 Y2.9513
G01 X-60.7787 Y2.9471
G01 X-60.7048 Y2.8802
G01 X-60.7003 Y2.8764
G01 X-60.6202 Y2.8170
G01 X-60.6153 Y2.8138
G01 X-60.5298 Y2.7625
G01 X-60.5246 Y2.7597
G01 X-60.4345 Y2.7171
G01 X-60.4290 Y2.7148
G01 X-60.3351 Y2.6813
G01 X-60.3295 Y2.6795
G01 X-60.2328 Y2.6553
G01 X-60.2270 Y2.6542
G01 X-60.1284 Y2.6395
G01 X-60.1225 Y2.6390
G01 X-60.0229 Y2.6341
G01 X-60.0171 Y2.6341
G01 X-59.9175 Y2.6390
G01 X-59.9116 Y2.6395
G01 X-59.8130 Y2.6542
G01 X-59.8072 Y2.6553
G01 X-59.7105 Y2.6795
G01 X-59.7049 Y2.6813
G01 X-59.6110 Y2.7148
G01 X-59.6055 Y2.7171
G01 X-59.5154 Y2.7597
G01 X-59.5102 Y2.7625
G01 X-59.4247 Y2.8138
G01 X-59.4198 Y2.8170
G01 X-59.3397 Y2.8764
G01 X-59.3352 Y2.8802
G01 X-59.2613 Y2.9471
G01 X-59.2571 Y2.9513
G01 X-59.1902 Y3.0252
G01 X-59.1864 Y3.0297
G01 X-59.1270 Y3.1098
G01 X-59.1238 Y3.1147
G01 X-59.0725 Y3.2002
G01 X-59.0697 Y3.2054
G01 X-59.0271 Y3.2955
G01 X-59.0248 Y3.3010
G01 X-58.9913 Y3.3949
G01 X-58.9895 Y3.4005
G01 X-58.9653 Y3.4972
G01 X-58.9642 Y3.5030
G01 X-58.9495 Y3.6016
G01 X-58.9490 Y3.6075
G01 X-58.9441 Y3.7071
G01 X-58.9441 Y3.7129
G00 Z2.5000
G00 X-72.4041 Y3.7029
G01 F50.00
G01 Z-0.0567
G01 F100.00
G01 X-72.4090 Y3.8025
G01 X-72.4095 Y3.8084
G01 X-72.4242 Y3.9070
G01 X-72.4253 Y3.9128
G01 X-72.4495 Y4.0095
G01 X-72.4513 Y4.0151
G01 X-72.4848 Y4.1090
G01 X-72.4871 Y4.1145
G01 X-72.5297 Y4.2046
G01 X-72.5325 Y4.2098
G01 X-72.5838 Y4.2953
G01 X-72.5870 Y4.3002
G01 X-72.6464 Y4.3803
G01 X-72.6502 Y4.3848
G01 X-72.7171 Y4.4587
G01 X-72.7213 Y4.4629
G01 X-72.7952 Y4.5298
G01 X-72.7997 Y4.5336
G01 X-72.8798 Y4.5930
G01 X-72.8847 Y4.5962
G01 X-72.9702 Y4.6475
G01 X-72.9754 Y4.6503
G01 X-73.0655 Y4.6929
G01 X-73.0710 Y4.6952
G01 X-73.1649 Y4.7287
G01 X-73.1705 Y4.7305
G01 X-73.2672 Y4.7547
G01 X-73.2730 Y4.7558
G01 X-73.3716 Y4.7705
G01 X-73.3775 Y4.7710
G01 X-73.4771 Y4.7759
G01 X-73.4829 Y4.7759
G01 X-73.5825 Y4.7710
G01 X-73.5884 Y4.7705
G01 X-73.6870 Y4.7558
G01 X-73.6928 Y4.7547
G01 X-73.7895 Y4.7305
G01 X-73.7951 Y4.7287
G01 X-73.8890 Y4.6952
G01 X-73.8945 Y4.6929
G01 X-73.9846 Y4.6503
G01 X-73.9898 Y4.6475
G01 X-74.0753 Y4.5962
G01 X-74.0802 Y4.5930
G01 X-74.1603 Y4.5336
G01 X-74.1648 Y4.5298
G01 X-74.2387 Y4.4629
G01 X-74.2429 Y4.4587
G01 X-74.3098 Y4.3848
G01 X-74.3136 Y4.3803
G01 X-74.3730 Y4.3002
G01 X-74.3762 Y4.2953
G01 X-74.4275 Y4.2098
G01 X-74.4303 Y4.2046
G01 X-74.4729 Y4.1145
G01 X-74.4752 Y4.1090
G01 X-74.5087 Y4.0151
G01 X-74.5105 Y4.0095
G01 X-74.5347 Y3.9128
G01 X-74.5358 Y3.9070
G01 X-74.5505 Y3.8084
G01 X-74.5510 Y3.8025
G01 X-74.5559 Y3.7029
G01 X-74.5559 Y3.6971
G01 X-74.5510 Y3.5975
G01 X-74.5505 Y3.5916
G01 X-74.5358 Y3.4930
G01 X-74.5347 Y3.4872
G01 X-74.5105 Y3.3905
G01 X-74.5087 Y3.3849
G01 X-74.4752 Y3.2910
G01 X-74.4729 Y3.2855
G01 X-74.4303 Y3.1954
G01 X-74.4275 Y3.1902
G01 X-74.3762 Y3.1047
G01 X-74.3730 Y3.0998
G01 X-74.3136 Y3.0197
G01 X-74.3098 Y3.0152
G01 X-74.2429 Y2.9413
G01 X-74.2387 Y2.9371
G01 X-74.1648 Y2.8702
G01 X-74.1603 Y2.8664
G01 X-74.0802 Y2.8070
G01 X-74.0753 Y2.8038
G01 X-73.9898 Y2.7525
G01 X-73.9846 Y2.7497
G01 X-73.8945 Y2.7071
G01 X-73.8890 Y2.7048
G01 X-73.7951 Y2.6713
G01 X-73.7895 Y2.6695
G01 X-73.6928 Y2.6453
G01 X-73.6870 Y2.6442
G01 X-73.5884 Y2.6295
G01 X-73.5825 Y2.6290
G01 X-73.4829 Y2.6241
G01 X-73.4771 Y2.6241
G01 X-73.3775 Y2.6290
G01 X-73.3716 Y2.6295
G01 X-73.2730 Y2.6442
G01 X-73.2672 Y2.6453
G01 X-73.1705 Y2.6695
G01 X-73.1649 Y2.6713
G01 X-73.0710 Y2.7048
G01 X-73.0655 Y2.7071
G01 X-72.9754 Y2.7497
G01 X-72.9702 Y2.7525
G01 X-72.8847 Y2.8038
G01 X-72.8798 Y2.8070
G01 X-72.7997 Y2.8664
G01 X-72.7952 Y2.8702
G01 X-72.7213 Y2.9371
G01 X-72.7171 Y2.9413
G01 X-72.6502 Y3.0152
G01 X-72.6464 Y3.0197
G01 X-72.5870 Y3.0998
G01 X-72.5838 Y3.1047
G01 X-72.5325 Y3.1902
G01 X-72.5297 Y3.1954
G01 X-72.4871 Y3.2855
G01 X-72.4848 Y3.2910
G01 X-72.4513 Y3.3849
G01 X-72.4495 Y3.3905
G01 X-72.4253 Y3.4872
G01 X-72.4242 Y3.4930
G01 X-72.4095 Y3.5916
G01 X-72.4090 Y3.5975
G01 X-72.4041 Y3.6971
G01 X-72.4041 Y3.7029
G00 Z2.5000
G00 X-77.5041 Y3.7029
G01 F50.00
G01 Z-0.0567
G01 F100.00
G01 X-77.5090 Y3.8025
G01 X-77.5095 Y3.8084
G01 X-77.5242 Y3.9070
G01 X-77.5253 Y3.9128
G01 X-77.5495 Y4.0095
G01 X-77.5513 Y4.0151
G01 X-77.5848 Y4.1090
G01 X-77.5871 Y4.1145
G01 X-77.6297 Y4.2046
G01 X-77.6325 Y4.2098
G01 X-77.6838 Y4.2953
G01 X-77.6870 Y4.3002
G01 X-77.7464 Y4.3803
G01 X-77.7502 Y4.3848
G01 X-77.8171 Y4.4587
G01 X-77.8213 Y4.4629
G01 X-77.8952 Y4.5298
G01 X-77.8997 Y4.5336
G01 X-77.9798 Y4.5930
G01 X-77.9847 Y4.5962
G01 X-78.0702 Y4.6475
G01 X-78.0754 Y4.6503
G01 X-78.1655 Y4.6929
G01 X-78.1710 Y4.6952
G01 X-78.2649 Y4.7287
G01 X-78.2705 Y4.7305
G01 X-78.3672 Y4.7547
G01 X-78.3730 Y4.7558
G01 X-78.4716 Y4.7705
G01 X-78.4775 Y4.7710
G01 X-78.5771 Y4.7759
G01 X-78.5829 Y4.7759
G01 X-78.6825 Y4.7710
G01 X-78.6884 Y4.7705
G01 X-78.7870 Y4.7558
G01 X-78.7928 Y4.7547
G01 X-78.8895 Y4.7305
G01 X-78.8951 Y4.7287
G01 X-78.9890 Y4.6952
G01 X-78.9945 Y4.6929
G01 X-79.0846 Y4.6503
G01 X-79.0898 Y4.6475
G01 X-79.1753 Y4.5962
G01 X-79.1802 Y4.5930
G01 X-79.2603 Y4.5336
G01 X-79.2648 Y4.5298
G01 X-79.3387 Y4.4629
G01 X-79.3429 Y4.4587
G01 X-79.4098 Y4.3848
G01 X-79.4136 Y4.3803
G01 X-79.4730 Y4.3002
G01 X-79.4762 Y4.2953
G01 X-79.5275 Y4.2098
G01 X-79.5303 Y4.2046
G01 X-79.5729 Y4.1145
G01 X-79.5752 Y4.1090
G01 X-79.6087 Y4.0151
G01 X-79.6105 Y4.0095
G01 X-79.6347 Y3.9128
G01 X-79.6358 Y3.9070
G01 X-79.6505 Y3.8084
G01 X-79.6510 Y3.8025
G01 X-79.6559 Y3.7029
G01 X-79.6559 Y3.6971
G01 X-79.6510 Y3.5975
G01 X-79.6505 Y3.5916
G01 X-79.6358 Y3.4930
G01 X-79.6347 Y3.4872
G01 X-79.6105 Y3.3905
G01 X-79.6087 Y3.3849
G01 X-79.5752 Y3.2910
G01 X-79.5729 Y3.2855
G01 X-79.5303 Y3.1954
G01 X-79.5275 Y3.1902
G01 X-79.4762 Y3.1047
G01 X-79.4730 Y3.0998
G01 X-79.4136 Y3.0197
G01 X-79.4098 Y3.0152
G01 X-79.3429 Y2.9413
G01 X-79.3387 Y2.9371
G01 X-79.2648 Y2.8702
G01 X-79.2603 Y2.8664
G01 X-79.1802 Y2.8070
G01 X-79.1753 Y2.8038
G01 X-79.0898 Y2.7525
G01 X-79.0846 Y2.7497
G01 X-78.9945 Y2.7071
G01 X-78.9890 Y2.7048
G01 X-78.8951 Y2.6713
G01 X-78.8895 Y2.6695
G01 X-78.7928 Y2.6453
G01 X-78.7870 Y2.6442
G01 X-78.6884 Y2.6295
G01 X-78.6825 Y2.6290
G01 X-78.5829 Y2.6241
G01 X-78.5771 Y2.6241
G01 X-78.4775 Y2.6290
G01 X-78.4716 Y2.6295
G01 X-78.3730 Y2.6442
G01 X-78.3672 Y2.6453
G01 X-78.2705 Y2.6695
G01 X-78.2649 Y2.6713
G01 X-78.1710 Y2.7048
G01 X-78.1655 Y2.7071
G01 X-78.0754 Y2.7497
G01 X-78.0702 Y2.7525
G01 X-77.9847 Y2.8038
G01 X-77.9798 Y2.8070
G01 X-77.8997 Y2.8664
G01 X-77.8952 Y2.8702
G01 X-77.8213 Y2.9371
G01 X-77.8171 Y2.9413
G01 X-77.7502 Y3.0152
G01 X-77.7464 Y3.0197
G01 X-77.6870 Y3.0998
G01 X-77.6838 Y3.1047
G01 X-77.6325 Y3.1902
G01 X-77.6297 Y3.1954
G01 X-77.5871 Y3.2855
G01 X-77.5848 Y3.2910
G01 X-77.5513 Y3.3849
G01 X-77.5495 Y3.3905
G01 X-77.5253 Y3.4872
G01 X-77.5242 Y3.4930
G01 X-77.5095 Y3.5916
G01 X-77.5090 Y3.5975
G01 X-77.5041 Y3.6971
G01 X-77.5041 Y3.7029
G00 Z2.5000
G00 X-86.9401 Y7.0029
G01 F50.00
G01 Z-0.0567
G01 F100.00
G01 X-86.9497 Y7.1990
G01 X-86.9503 Y7.2048
G01 X-86.9791 Y7.3990
G01 X-86.9802 Y7.4048
G01 X-87.0279 Y7.5951
G01 X-87.0296 Y7.6008
G01 X-87.0957 Y7.7856
G01 X-87.0980 Y7.7910
G01 X-87.1819 Y7.9684
G01 X-87.1847 Y7.9736
G01 X-87.2856 Y8.1420
G01 X-87.2889 Y8.1469
G01 X-87.4058 Y8.3045
G01 X-87.4095 Y8.3091
G01 X-87.5413 Y8.4545
G01 X-87.5455 Y8.4587
G01 X-87.6909 Y8.5905
G01 X-87.6955 Y8.5942
G01 X-87.8531 Y8.7111
G01 X-87.8580 Y8.7144
G01 X-88.0264 Y8.8153
G01 X-88.0316 Y8.8181
G01 X-88.2090 Y8.9020
G01 X-88.2144 Y8.9043
G01 X-88.3992 Y8.9704
G01 X-88.4049 Y8.9721
G01 X-88.5952 Y9.0198
G01 X-88.6010 Y9.0209
G01 X-88.7952 Y9.0497
G01 X-88.8010 Y9.0503
G01 X-88.9971 Y9.0599
G01 X-89.0029 Y9.0599
G01 X-89.1990 Y9.0503
G01 X-89.2048 Y9.0497
G01 X-89.3990 Y9.0209
G01 X-89.4048 Y9.0198
G01 X-89.5951 Y8.9721
G01 X-89.6008 Y8.9704
G01 X-89.7856 Y8.9043
G01 X-89.7910 Y8.9020
G01 X-89.9684 Y8.8181
G01 X-89.9736 Y8.8153
G01 X-90.1420 Y8.7144
G01 X-90.1469 Y8.7111
G01 X-90.3045 Y8.5942
G01 X-90.3091 Y8.5905
G01 X-90.4545 Y8.4587
G01 X-90.4587 Y8.4545
G01 X-90.5905 Y8.3091
G01 X-90.5942 Y8.3045
G01 X-90.7111 Y8.1469
G01 X-90.7144 Y8.1420
G01 X-90.8153 Y7.9736
G01 X-90.8181 Y7.9684
G01 X-90.9020 Y7.7910
G01 X-90.9043 Y7.7856
G01 X-90.9704 Y7.6008
G01 X-90.9721 Y7.5951
G01 X-91.0198 Y7.4048
G01 X-91.0209 Y7.3990
G01 X-91.0497 Y7.2048
G01 X-91.0503 Y7.1990
G01 X-91.0599 Y7.0029
G01 X-91.0599 Y6.9971
G01 X-91.0503 Y6.8010
G01 X-91.0497 Y6.7952
G01 X-91.0209 Y6.6010
G01 X-91.0198 Y6.5952
G01 X-90.9721 Y6.4049
G01 X-90.9704 Y6.3992
G01 X-90.9043 Y6.2144
G01 X-90.9020 Y6.2090
G01 X-90.8181 Y6.0316
G01 X-90.8153 Y6.0264
G01 X-90.7144 Y5.8580
G01 X-90.7111 Y5.8531
G01 X-90.5942 Y5.6955
G01 X-90.5905 Y5.6909
G01 X-90.4587 Y5.5455
G01 X-90.4545 Y5.5413
G01 X-90.3091 Y5.4095
G01 X-90.3045 Y5.4058
G01 X-90.1469 Y5.2889
G01 X-90.1420 Y5.2856
G01 X-89.9736 Y5.1847
G01 X-89.9684 Y5.1819
G01 X-89.7910 Y5.0980
G01 X-89.7856 Y5.0957
G01 X-89.6008 Y5.0296
G01 X-89.5951 Y5.0279
G01 X-89.4048 Y4.9802
G01 X-89.3990 Y4.9791
G01 X-89.2048 Y4.9503
G01 X-89.1990 Y4.9497
G01 X-89.0029 Y4.9401
G01 X-88.9971 Y4.9401
G01 X-88.8010 Y4.9497
G01 X-88.7952 Y4.9503
G01 X-88.6010 Y4.9791
G01 X-88.5952 Y4.9802
G01 X-88.4049 Y5.0279
G01 X-88.3992 Y5.0296
G01 X-88.2144 Y5.0957
G01 X-88.2090 Y5.0980
G01 X-88.0316 Y5.1819
G01 X-88.0264 Y5.1847
G01 X-87.8580 Y5.2856
G01 X-87.8531 Y5.2889
G01 X-87.6955 Y5.4058
G01 X-87.6909 Y5.4095
G01 X-87.5455 Y5.5413
G01 X-87.5413 Y5.5455
G01 X-87.4095 Y5.6909
G01 X-87.4058 Y5.6955
G01 X-87.2889 Y5.8531
G01 X-87.2856 Y5.8580
G01 X-87.1847 Y6.0264
G01 X-87.1819 Y6.0316
G01 X-87.0980 Y6.2090
G01 X-87.0957 Y6.2144
G01 X-87.0296 Y6.3992
G01 X-87.0279 Y6.4049
G01 X-86.9802 Y6.5952
G01 X-86.9791 Y6.6010
G01 X-86.9503 Y6.7952
G01 X-86.9497 Y6.8010
G01 X-86.9401 Y6.9971
G01 X-86.9401 Y7.0029
G00 Z2.5000
G00 X-96.8383 Y0.6617
G01 F50.00
G01 Z-0.0567
G01 F100.00
G01 X-0.6617 Y0.6617
G01 X-0.6617 Y86.3383
G01 X-96.8383 Y86.3383
G01 X-96.8383 Y0.6617
G00 Z2.5000
G00 X-97.1616 Y0.4971
G01 F50.00
G01 Z-0.0567
G01 F100.00
G01 X-97.1605 Y0.4812
G01 X-97.1579 Y0.4656
G01 X-97.1538 Y0.4503
G01 X-97.1482 Y0.4354
G01 X-97.1411 Y0.4212
G01 X-97.1327 Y0.4078
G01 X-97.1230 Y0.3952
G01 X-97.1122 Y0.3837
G01 X-97.1002 Y0.3732
G01 X-97.0873 Y0.3640
G01 X-97.0736 Y0.3561
G01 X-97.0591 Y0.3496
G01 X-97.0441 Y0.3445
G01 X-97.0286 Y0.3410
G01 X-97.0129 Y0.3389
G01 X-97.0000 Y0.3383
G01 X-0.5000 Y0.3383
G01 X-0.4871 Y0.3389
G01 X-0.4714 Y0.3410
G01 X-0.4559 Y0.3445
G01 X-0.4409 Y0.3496
G01 X-0.4354 Y0.3518
G01 X-0.4212 Y0.3589
G01 X-0.4078 Y0.3673
G01 X-0.3952 Y0.3770
G01 X-0.3837 Y0.3878
G01 X-0.3770 Y0.3952
G01 X-0.3673 Y0.4078
G01 X-0.3589 Y0.4212
G01 X-0.3518 Y0.4354
G01 X-0.3462 Y0.4503
G01 X-0.3421 Y0.4656
G01 X-0.3395 Y0.4812
G01 X-0.3383 Y0.5000
G01 X-0.3383 Y86.5000
G01 X-0.3389 Y86.5129
G01 X-0.3410 Y86.5286
G01 X-0.3445 Y86.5441
G01 X-0.3496 Y86.5591
G01 X-0.3518 Y86.5646
G01 X-0.3589 Y86.5788
G01 X-0.3673 Y86.5922
G01 X-0.3770 Y86.6048
G01 X-0.3878 Y86.6163
G01 X-0.3952 Y86.6230
G01 X-0.4078 Y86.6327
G01 X-0.4212 Y86.6411
G01 X-0.4354 Y86.6482
G01 X-0.4503 Y86.6538
G01 X-0.4656 Y86.6579
G01 X-0.4812 Y86.6605
G01 X-0.5000 Y86.6617
G01 X-97.0000 Y86.6617
G01 X-97.0129 Y86.6611
G01 X-97.0286 Y86.6590
G01 X-97.0441 Y86.6555
G01 X-97.0591 Y86.6504
G01 X-97.0646 Y86.6482
G01 X-97.0788 Y86.6411
G01 X-97.0922 Y86.6327
G01 X-97.1048 Y86.6230
G01 X-97.1163 Y86.6122
G01 X-97.1230 Y86.6048
G01 X-97.1327 Y86.5922
G01 X-97.1411 Y86.5788
G01 X-97.1482 Y86.5646
G01 X-97.1538 Y86.5497
G01 X-97.1579 Y86.5344
G01 X-97.1605 Y86.5188
G01 X-97.1617 Y86.5000
G01 X-97.1616 Y0.4971
G00 Z2.5000
G00 X-77.3417 Y32.1183
G01 F50.00
G01 Z-0.0567
G01 F100.00
G01 X-74.1753 Y28.9520
G01 X-74.1753 Y17.2203
G01 X-74.2387 Y17.1629
G01 X-74.2429 Y17.1587
G01 X-74.3098 Y17.0848
G01 X-74.3136 Y17.0803
G01 X-74.3730 Y17.0002
G01 X-74.3762 Y16.9953
G01 X-74.4275 Y16.9098
G01 X-74.4303 Y16.9046
G01 X-74.4729 Y16.8145
G01 X-74.4752 Y16.8090
G01 X-74.5087 Y16.7151
G01 X-74.5105 Y16.7095
G01 X-74.5347 Y16.6128
G01 X-74.5358 Y16.6070
G01 X-74.5505 Y16.5084
G01 X-74.5510 Y16.5025
G01 X-74.5559 Y16.4029
G01 X-74.5559 Y16.3971
G01 X-74.5510 Y16.2975
G01 X-74.5505 Y16.2916
G01 X-74.5358 Y16.1930
G01 X-74.5347 Y16.1872
G01 X-74.5105 Y16.0905
G01 X-74.5087 Y16.0849
G01 X-74.4752 Y15.9910
G01 X-74.4729 Y15.9855
G01 X-74.4303 Y15.8954
G01 X-74.4275 Y15.8902
G01 X-74.3762 Y15.8047
G01 X-74.3730 Y15.7998
G01 X-74.3136 Y15.7197
G01 X-74.3098 Y15.7152
G01 X-74.2429 Y15.6413
G01 X-74.2387 Y15.6371
G01 X-74.1648 Y15.5702
G01 X-74.1603 Y15.5664
G01 X-74.0802 Y15.5070
G01 X-74.0753 Y15.5038
G01 X-73.9898 Y15.4525
G01 X-73.9846 Y15.4497
G01 X-73.8945 Y15.4071
G01 X-73.8890 Y15.4048
G01 X-73.7951 Y15.3713
G01 X-73.7895 Y15.3695
G01 X-73.6928 Y15.3453
G01 X-73.6870 Y15.3442
G01 X-73.5884 Y15.3295
G01 X-73.5825 Y15.3290
G01 X-73.4829 Y15.3241
G01 X-73.4771 Y15.3241
G01 X-73.3775 Y15.3290
G01 X-73.3716 Y15.3295
G01 X-73.2730 Y15.3442
G01 X-73.2672 Y15.3453
G01 X-73.1705 Y15.3695
G01 X-73.1649 Y15.3713
G01 X-73.0710 Y15.4048
G01 X-73.0655 Y15.4071
G01 X-72.9754 Y15.4497
G01 X-72.9702 Y15.4525
G01 X-72.8847 Y15.5038
G01 X-72.8798 Y15.5070
G01 X-72.7997 Y15.5664
G01 X-72.7952 Y15.5702
G01 X-72.7213 Y15.6371
G01 X-72.7171 Y15.6413
G01 X-72.6502 Y15.7152
G01 X-72.6464 Y15.7197
G01 X-72.5870 Y15.7998
G01 X-72.5838 Y15.8047
G01 X-72.5325 Y15.8902
G01 X-72.5297 Y15.8954
G01 X-72.4871 Y15.9855
G01 X-72.4848 Y15.9910
G01 X-72.4513 Y16.0849
G01 X-72.4495 Y16.0905
G01 X-72.4253 Y16.1872
G01 X-72.4242 Y16.1930
G01 X-72.4095 Y16.2916
G01 X-72.4090 Y16.2975
G01 X-72.4041 Y16.3971
G01 X-72.4041 Y16.4029
G01 X-72.4090 Y16.5025
G01 X-72.4095 Y16.5084
G01 X-72.4242 Y16.6070
G01 X-72.4253 Y16.6128
G01 X-72.4495 Y16.7095
G01 X-72.4513 Y16.7151
G01 X-72.4848 Y16.8090
G01 X-72.4871 Y16.8145
G01 X-72.5297 Y16.9046
G01 X-72.5325 Y16.9098
G01 X-72.5838 Y16.9953
G01 X-72.5870 Y17.0002
G01 X-72.6464 Y17.0803
G01 X-72.6502 Y17.0848
G01 X-72.7171 Y17.1587
G01 X-72.7213 Y17.1629
G01 X-72.7847 Y17.2203
G01 X-72.7847 Y28.9520
G01 X-67.6563 Y34.0805
G01 X-67.6144 Y34.1267
G01 X-67.6107 Y34.1312
G01 X-67.5736 Y34.1813
G01 X-67.5703 Y34.1862
G01 X-67.5382 Y34.2397
G01 X-67.5355 Y34.2449
G01 X-67.5088 Y34.3012
G01 X-67.5066 Y34.3067
G01 X-67.4855 Y34.3654
G01 X-67.4838 Y34.3710
G01 X-67.4687 Y34.4315
G01 X-67.4675 Y34.4373
G01 X-67.4584 Y34.4989
G01 X-67.4578 Y34.5048
G01 X-67.4548 Y34.5671
G01 X-67.4548 Y34.5729
G01 X-67.4578 Y34.6352
G01 X-67.4584 Y34.6411
G01 X-67.4675 Y34.7027
G01 X-67.4687 Y34.7085
G01 X-67.4838 Y34.7690
G01 X-67.4855 Y34.7746
G01 X-67.5066 Y34.8333
G01 X-67.5088 Y34.8388
G01 X-67.5355 Y34.8951
G01 X-67.5382 Y34.9003
G01 X-67.5703 Y34.9538
G01 X-67.5736 Y34.9587
G01 X-67.6107 Y35.0088
G01 X-67.6144 Y35.0133
G01 X-67.6563 Y35.0595
G01 X-67.6605 Y35.0637
G01 X-67.7067 Y35.1056
G01 X-67.7112 Y35.1093
G01 X-67.7613 Y35.1464
G01 X-67.7662 Y35.1497
G01 X-67.8197 Y35.1818
G01 X-67.8249 Y35.1845
G01 X-67.8812 Y35.2112
G01 X-67.8867 Y35.2134
G01 X-67.9454 Y35.2345
G01 X-67.9510 Y35.2362
G01 X-68.0115 Y35.2513
G01 X-68.0173 Y35.2525
G01 X-68.0789 Y35.2616
G01 X-68.0848 Y35.2622
G01 X-68.1471 Y35.2652
G01 X-68.1529 Y35.2652
G01 X-68.2152 Y35.2622
G01 X-68.2211 Y35.2616
G01 X-68.2827 Y35.2525
G01 X-68.2885 Y35.2513
G01 X-68.3490 Y35.2362
G01 X-68.3546 Y35.2345
G01 X-68.4133 Y35.2134
G01 X-68.4188 Y35.2112
G01 X-68.4751 Y35.1845
G01 X-68.4803 Y35.1818
G01 X-68.5338 Y35.1497
G01 X-68.5387 Y35.1464
G01 X-68.5888 Y35.1093
G01 X-68.5933 Y35.1056
G01 X-68.6417 Y35.0617
G01 X-73.4800 Y30.2233
G01 X-76.1547 Y32.8980
G01 X-76.1547 Y37.9100
G01 X-76.1578 Y37.9752
G01 X-76.1584 Y37.9811
G01 X-76.1675 Y38.0427
G01 X-76.1687 Y38.0485
G01 X-76.1838 Y38.1090
G01 X-76.1855 Y38.1146
G01 X-76.2066 Y38.1733
G01 X-76.2088 Y38.1788
G01 X-76.2355 Y38.2351
G01 X-76.2382 Y38.2403
G01 X-76.2703 Y38.2938
G01 X-76.2736 Y38.2987
G01 X-76.3107 Y38.3488
G01 X-76.3144 Y38.3533
G01 X-76.3563 Y38.3995
G01 X-76.3605 Y38.4037
G01 X-76.4067 Y38.4456
G01 X-76.4112 Y38.4493
G01 X-76.4613 Y38.4864
G01 X-76.4662 Y38.4897
G01 X-76.5197 Y38.5218
G01 X-76.5249 Y38.5245
G01 X-76.5812 Y38.5512
G01 X-76.5867 Y38.5534
G01 X-76.6454 Y38.5745
G01 X-76.6510 Y38.5762
G01 X-76.7115 Y38.5913
G01 X-76.7173 Y38.5925
G01 X-76.7789 Y38.6016
G01 X-76.7848 Y38.6022
G01 X-76.8471 Y38.6052
G01 X-76.8529 Y38.6052
G01 X-76.9152 Y38.6022
G01 X-76.9211 Y38.6016
G01 X-76.9827 Y38.5925
G01 X-76.9885 Y38.5913
G01 X-77.0490 Y38.5762
G01 X-77.0546 Y38.5745
G01 X-77.1133 Y38.5534
G01 X-77.1188 Y38.5512
G01 X-77.1751 Y38.5245
G01 X-77.1803 Y38.5218
G01 X-77.2338 Y38.4897
G01 X-77.2387 Y38.4864
G01 X-77.2888 Y38.4493
G01 X-77.2933 Y38.4456
G01 X-77.3395 Y38.4037
G01 X-77.3437 Y38.3995
G01 X-77.3856 Y38.3533
G01 X-77.3893 Y38.3488
G01 X-77.4264 Y38.2987
G01 X-77.4297 Y38.2938
G01 X-77.4618 Y38.2403
G01 X-77.4645 Y38.2351
G01 X-77.4912 Y38.1788
G01 X-77.4934 Y38.1733
G01 X-77.5145 Y38.1146
G01 X-77.5162 Y38.1090
G01 X-77.5313 Y38.0485
G01 X-77.5325 Y38.0427
G01 X-77.5416 Y37.9811
G01 X-77.5422 Y37.9752
G01 X-77.5452 Y37.9129
G01 X-77.5452 Y32.6071
G01 X-77.5422 Y32.5448
G01 X-77.5416 Y32.5389
G01 X-77.5325 Y32.4773
G01 X-77.5313 Y32.4715
G01 X-77.5162 Y32.4110
G01 X-77.5145 Y32.4054
G01 X-77.4934 Y32.3467
G01 X-77.4912 Y32.3412
G01 X-77.4645 Y32.2849
G01 X-77.4618 Y32.2797
G01 X-77.4297 Y32.2262
G01 X-77.4264 Y32.2213
G01 X-77.3893 Y32.1712
G01 X-77.3856 Y32.1667
G01 X-77.3417 Y32.1183
G00 Z2.5000
G00 X-74.9450 Y37.2150
G01 F50.00
G01 Z-0.0567
G01 F100.00
G01 X-74.3179 Y37.2150
G01 X-74.3100 Y37.2147
G01 X-65.1980 Y37.2147
G01 X-63.7653 Y35.7820
G01 X-63.7653 Y30.1700
G01 X-63.7622 Y30.1048
G01 X-63.7616 Y30.0989
G01 X-63.7525 Y30.0373
G01 X-63.7513 Y30.0315
G01 X-63.7362 Y29.9710
G01 X-63.7345 Y29.9654
G01 X-63.7134 Y29.9067
G01 X-63.7112 Y29.9012
G01 X-63.6845 Y29.8449
G01 X-63.6818 Y29.8397
G01 X-63.6497 Y29.7862
G01 X-63.6464 Y29.7813
G01 X-63.6093 Y29.7312
G01 X-63.6056 Y29.7267
G01 X-63.5617 Y29.6783
G01 X-55.6153 Y21.7320
G01 X-55.6153 Y17.2303
G01 X-55.6787 Y17.1729
G01 X-55.6829 Y17.1687
G01 X-55.7498 Y17.0948
G01 X-55.7536 Y17.0903
G01 X-55.8130 Y17.0102
G01 X-55.8162 Y17.0053
G01 X-55.8675 Y16.9198
G01 X-55.8703 Y16.9146
G01 X-55.9129 Y16.8245
G01 X-55.9152 Y16.8190
G01 X-55.9487 Y16.7251
G01 X-55.9505 Y16.7195
G01 X-55.9747 Y16.6228
G01 X-55.9758 Y16.6170
G01 X-55.9905 Y16.5184
G01 X-55.9910 Y16.5125
G01 X-55.9959 Y16.4129
G01 X-55.9959 Y16.4071
G01 X-55.9910 Y16.3075
G01 X-55.9905 Y16.3016
G01 X-55.9758 Y16.2030
G01 X-55.9747 Y16.1972
G01 X-55.9505 Y16.1005
G01 X-55.9487 Y16.0949
G01 X-55.9152 Y16.0010
G01 X-55.9129 Y15.9955
G01 X-55.8703 Y15.9054
G01 X-55.8675 Y15.9002
G01 X-55.8162 Y15.8147
G01 X-55.8130 Y15.8098
G01 X-55.7536 Y15.7297
G01 X-55.7498 Y15.7252
G01 X-55.6829 Y15.6513
G01 X-55.6787 Y15.6471
G01 X-55.6048 Y15.5802
G01 X-55.6003 Y15.5764
G01 X-55.5202 Y15.5170
G01 X-55.5153 Y15.5138
G01 X-55.4298 Y15.4625
G01 X-55.4246 Y15.4597
G01 X-55.3345 Y15.4171
G01 X-55.3290 Y15.4148
G01 X-55.2351 Y15.3813
G01 X-55.2295 Y15.3795
G01 X-55.1328 Y15.3553
G01 X-55.1270 Y15.3542
G01 X-55.0284 Y15.3395
G01 X-55.0225 Y15.3390
G01 X-54.9229 Y15.3341
G01 X-54.9171 Y15.3341
G01 X-54.8175 Y15.3390
G01 X-54.8116 Y15.3395
G01 X-54.7130 Y15.3542
G01 X-54.7072 Y15.3553
G01 X-54.6105 Y15.3795
G01 X-54.6049 Y15.3813
G01 X-54.5110 Y15.4148
G01 X-54.5055 Y15.4171
G01 X-54.4154 Y15.4597
G01 X-54.4102 Y15.4625
G01 X-54.3247 Y15.5138
G01 X-54.3198 Y15.5170
G01 X-54.2397 Y15.5764
G01 X-54.2352 Y15.5802
G01 X-54.1613 Y15.6471
G01 X-54.1571 Y15.6513
G01 X-54.0902 Y15.7252
G01 X-54.0864 Y15.7297
G01 X-54.0270 Y15.8098
G01 X-54.0238 Y15.8147
G01 X-53.9725 Y15.9002
G01 X-53.9697 Y15.9054
G01 X-53.9271 Y15.9955
G01 X-53.9248 Y16.0010
G01 X-53.8913 Y16.0949
G01 X-53.8895 Y16.1005
G01 X-53.8653 Y16.1972
G01 X-53.8642 Y16.2030
G01 X-53.8495 Y16.3016
G01 X-53.8490 Y16.3075
G01 X-53.8441 Y16.4071
G01 X-53.8441 Y16.4129
G01 X-53.8490 Y16.5125
G01 X-53.8495 Y16.5184
G01 X-53.8642 Y16.6170
G01 X-53.8653 Y16.6228
G01 X-53.8895 Y16.7195
G01 X-53.8913 Y16.7251
G01 X-53.9248 Y16.8190
G01 X-53.9271 Y16.8245
G01 X-53.9697 Y16.9146
G01 X-53.9725 Y16.9198
G01 X-54.0238 Y17.0053
G01 X-54.0270 Y17.0102
G01 X-54.0864 Y17.0903
G01 X-54.0902 Y17.0948
G01 X-54.1571 Y17.1687
G01 X-54.1613 Y17.1729
G01 X-54.2247 Y17.2303
G01 X-54.2247 Y22.0200
G01 X-54.2278 Y22.0852
G01 X-54.2284 Y22.0911
G01 X-54.2375 Y22.1527
G01 X-54.2387 Y22.1585
G01 X-54.2538 Y22.2190
G01 X-54.2555 Y22.2246
G01 X-54.2766 Y22.2833
G01 X-54.2788 Y22.2888
G01 X-54.3055 Y22.3451
G01 X-54.3082 Y22.3503
G01 X-54.3403 Y22.4038
G01 X-54.3436 Y22.4087
G01 X-54.3807 Y22.4588
G01 X-54.3844 Y22.4633
G01 X-54.4283 Y22.5117
G01 X-62.3747 Y30.4580
G01 X-62.3748 Y36.0729
G01 X-62.3778 Y36.1352
G01 X-62.3784 Y36.1411
G01 X-62.3875 Y36.2027
G01 X-62.3887 Y36.2085
G01 X-62.4038 Y36.2690
G01 X-62.4055 Y36.2746
G01 X-62.4266 Y36.3333
G01 X-62.4288 Y36.3388
G01 X-62.4555 Y36.3951
G01 X-62.4582 Y36.4003
G01 X-62.4903 Y36.4538
G01 X-62.4936 Y36.4587
G01 X-62.5307 Y36.5088
G01 X-62.5344 Y36.5133
G01 X-62.5783 Y36.5617
G01 X-64.4183 Y38.4017
G01 X-64.4667 Y38.4456
G01 X-64.4712 Y38.4493
G01 X-64.5213 Y38.4864
G01 X-64.5262 Y38.4897
G01 X-64.5797 Y38.5218
G01 X-64.5849 Y38.5245
G01 X-64.6412 Y38.5512
G01 X-64.6467 Y38.5534
G01 X-64.7054 Y38.5745
G01 X-64.7110 Y38.5762
G01 X-64.7715 Y38.5913
G01 X-64.7773 Y38.5925
G01 X-64.8389 Y38.6016
G01 X-64.8448 Y38.6022
G01 X-64.9100 Y38.6053
G01 X-74.3100 Y38.6053
G01 X-74.3179 Y38.6050
G01 X-74.9450 Y38.6050
G01 X-74.9509 Y38.6047
G01 X-74.9567 Y38.6038
G01 X-74.9624 Y38.6024
G01 X-74.9680 Y38.6004
G01 X-74.9733 Y38.5979
G01 X-74.9783 Y38.5949
G01 X-74.9831 Y38.5914
G01 X-74.9874 Y38.5874
G01 X-74.9914 Y38.5831
G01 X-74.9949 Y38.5783
G01 X-74.9979 Y38.5733
G01 X-75.0004 Y38.5680
G01 X-75.0024 Y38.5624
G01 X-75.0038 Y38.5567
G01 X-75.0047 Y38.5509
G01 X-75.0050 Y38.5450
G01 X-75.0050 Y37.2750
G01 X-75.0047 Y37.2691
G01 X-75.0038 Y37.2633
G01 X-75.0024 Y37.2576
G01 X-75.0004 Y37.2520
G01 X-74.9979 Y37.2467
G01 X-74.9949 Y37.2417
G01 X-74.9914 Y37.2369
G01 X-74.9874 Y37.2326
G01 X-74.9831 Y37.2286
G01 X-74.9783 Y37.2251
G01 X-74.9733 Y37.2221
G01 X-74.9680 Y37.2196
G01 X-74.9624 Y37.2176
G01 X-74.9567 Y37.2162
G01 X-74.9509 Y37.2153
G01 X-74.9450 Y37.2150
G00 Z2.5000
G00 X-81.2351 Y37.9129
G01 F50.00
G01 Z-0.0567
G01 F100.00
G01 X-81.2381 Y37.9752
G01 X-81.2387 Y37.9810
G01 X-81.2479 Y38.0427
G01 X-81.2490 Y38.0485
G01 X-81.2641 Y38.1089
G01 X-81.2659 Y38.1145
G01 X-81.2868 Y38.1732
G01 X-81.2891 Y38.1787
G01 X-81.3157 Y38.2350
G01 X-81.3185 Y38.2402
G01 X-81.3506 Y38.2936
G01 X-81.3538 Y38.2985
G01 X-81.3909 Y38.3486
G01 X-81.3947 Y38.3531
G01 X-81.4365 Y38.3993
G01 X-81.4407 Y38.4035
G01 X-81.4869 Y38.4453
G01 X-81.4914 Y38.4491
G01 X-81.5415 Y38.4862
G01 X-81.5464 Y38.4894
G01 X-81.5998 Y38.5215
G01 X-81.6050 Y38.5243
G01 X-81.6613 Y38.5509
G01 X-81.6668 Y38.5532
G01 X-81.7255 Y38.5741
G01 X-81.7311 Y38.5759
G01 X-81.7915 Y38.5910
G01 X-81.7973 Y38.5921
G01 X-81.8590 Y38.6013
G01 X-81.8648 Y38.6019
G01 X-81.9271 Y38.6049
G01 X-81.9329 Y38.6049
G01 X-81.9952 Y38.6019
G01 X-82.0010 Y38.6013
G01 X-82.0627 Y38.5921
G01 X-82.0685 Y38.5910
G01 X-82.1289 Y38.5759
G01 X-82.1345 Y38.5741
G01 X-82.1932 Y38.5532
G01 X-82.1987 Y38.5509
G01 X-82.2550 Y38.5243
G01 X-82.2602 Y38.5215
G01 X-82.3136 Y38.4894
G01 X-82.3185 Y38.4862
G01 X-82.3686 Y38.4491
G01 X-82.3731 Y38.4453
G01 X-82.4193 Y38.4035
G01 X-82.4235 Y38.3993
G01 X-82.4653 Y38.3531
G01 X-82.4691 Y38.3486
G01 X-82.5062 Y38.2985
G01 X-82.5094 Y38.2936
G01 X-82.5415 Y38.2402
G01 X-82.5443 Y38.2350
G01 X-82.5709 Y38.1787
G01 X-82.5732 Y38.1732
G01 X-82.5941 Y38.1145
G01 X-82.5959 Y38.1089
G01 X-82.6110 Y38.0485
G01 X-82.6121 Y38.0427
G01 X-82.6213 Y37.9810
G01 X-82.6219 Y37.9752
G01 X-82.6249 Y37.9129
G01 X-82.6249 Y37.9071
G01 X-82.6219 Y37.8448
G01 X-82.6213 Y37.8390
G01 X-82.6121 Y37.7773
G01 X-82.6110 Y37.7715
G01 X-82.5959 Y37.7111
G01 X-82.5941 Y37.7055
G01 X-82.5732 Y37.6468
G01 X-82.5709 Y37.6413
G01 X-82.5443 Y37.5850
G01 X-82.5415 Y37.5798
G01 X-82.5094 Y37.5264
G01 X-82.5062 Y37.5215
G01 X-82.4691 Y37.4714
G01 X-82.4653 Y37.4669
G01 X-82.4235 Y37.4207
G01 X-82.4193 Y37.4165
G01 X-82.3731 Y37.3747
G01 X-82.3686 Y37.3709
G01 X-82.3185 Y37.3338
G01 X-82.3136 Y37.3306
G01 X-82.2602 Y37.2985
G01 X-82.2550 Y37.2957
G01 X-82.1987 Y37.2691
G01 X-82.1932 Y37.2668
G01 X-82.1345 Y37.2459
G01 X-82.1289 Y37.2441
G01 X-82.0685 Y37.2290
G01 X-82.0627 Y37.2279
G01 X-82.0010 Y37.2187
G01 X-81.9952 Y37.2181
G01 X-81.9329 Y37.2151
G01 X-81.9271 Y37.2151
G01 X-81.8648 Y37.2181
G01 X-81.8590 Y37.2187
G01 X-81.7973 Y37.2279
G01 X-81.7915 Y37.2290
G01 X-81.7311 Y37.2441
G01 X-81.7255 Y37.2459
G01 X-81.6668 Y37.2668
G01 X-81.6613 Y37.2691
G01 X-81.6050 Y37.2957
G01 X-81.5998 Y37.2985
G01 X-81.5464 Y37.3306
G01 X-81.5415 Y37.3338
G01 X-81.4914 Y37.3709
G01 X-81.4869 Y37.3747
G01 X-81.4407 Y37.4165
G01 X-81.4365 Y37.4207
G01 X-81.3947 Y37.4669
G01 X-81.3909 Y37.4714
G01 X-81.3538 Y37.5215
G01 X-81.3506 Y37.5264
G01 X-81.3185 Y37.5798
G01 X-81.3157 Y37.5850
G01 X-81.2891 Y37.6413
G01 X-81.2868 Y37.6468
G01 X-81.2659 Y37.7055
G01 X-81.2641 Y37.7111
G01 X-81.2490 Y37.7715
G01 X-81.2479 Y37.7773
G01 X-81.2387 Y37.8390
G01 X-81.2381 Y37.8448
G01 X-81.2351 Y37.9071
G01 X-81.2351 Y37.9129
G00 Z2.5000
G00 X-83.7751 Y37.9129
G01 F50.00
G01 Z-0.0567
G01 F100.00
G01 X-83.7781 Y37.9752
G01 X-83.7787 Y37.9810
G01 X-83.7879 Y38.0427
G01 X-83.7890 Y38.0485
G01 X-83.8041 Y38.1089
G01 X-83.8059 Y38.1145
G01 X-83.8268 Y38.1732
G01 X-83.8291 Y38.1787
G01 X-83.8557 Y38.2350
G01 X-83.8585 Y38.2402
G01 X-83.8906 Y38.2936
G01 X-83.8938 Y38.2985
G01 X-83.9309 Y38.3486
G01 X-83.9347 Y38.3531
G01 X-83.9765 Y38.3993
G01 X-83.9807 Y38.4035
G01 X-84.0269 Y38.4453
G01 X-84.0314 Y38.4491
G01 X-84.0815 Y38.4862
G01 X-84.0864 Y38.4894
G01 X-84.1398 Y38.5215
G01 X-84.1450 Y38.5243
G01 X-84.2013 Y38.5509
G01 X-84.2068 Y38.5532
G01 X-84.2655 Y38.5741
G01 X-84.2711 Y38.5759
G01 X-84.3315 Y38.5910
G01 X-84.3373 Y38.5921
G01 X-84.3990 Y38.6013
G01 X-84.4048 Y38.6019
G01 X-84.4671 Y38.6049
G01 X-84.4729 Y38.6049
G01 X-84.5352 Y38.6019
G01 X-84.5410 Y38.6013
G01 X-84.6027 Y38.5921
G01 X-84.6085 Y38.5910
G01 X-84.6689 Y38.5759
G01 X-84.6745 Y38.5741
G01 X-84.7332 Y38.5532
G01 X-84.7387 Y38.5509
G01 X-84.7950 Y38.5243
G01 X-84.8002 Y38.5215
G01 X-84.8536 Y38.4894
G01 X-84.8585 Y38.4862
G01 X-84.9086 Y38.4491
G01 X-84.9131 Y38.4453
G01 X-84.9593 Y38.4035
G01 X-84.9635 Y38.3993
G01 X-85.0053 Y38.3531
G01 X-85.0091 Y38.3486
G01 X-85.0462 Y38.2985
G01 X-85.0494 Y38.2936
G01 X-85.0815 Y38.2402
G01 X-85.0843 Y38.2350
G01 X-85.1109 Y38.1787
G01 X-85.1132 Y38.1732
G01 X-85.1341 Y38.1145
G01 X-85.1359 Y38.1089
G01 X-85.1510 Y38.0485
G01 X-85.1521 Y38.0427
G01 X-85.1613 Y37.9810
G01 X-85.1619 Y37.9752
G01 X-85.1649 Y37.9129
G01 X-85.1649 Y37.9071
G01 X-85.1619 Y37.8448
G01 X-85.1613 Y37.8390
G01 X-85.1521 Y37.7773
G01 X-85.1510 Y37.7715
G01 X-85.1359 Y37.7111
G01 X-85.1341 Y37.7055
G01 X-85.1132 Y37.6468
G01 X-85.1109 Y37.6413
G01 X-85.0843 Y37.5850
G01 X-85.0815 Y37.5798
G01 X-85.0494 Y37.5264
G01 X-85.0462 Y37.5215
G01 X-85.0091 Y37.4714
G01 X-85.0053 Y37.4669
G01 X-84.9635 Y37.4207
G01 X-84.9593 Y37.4165
G01 X-84.9131 Y37.3747
G01 X-84.9086 Y37.3709
G01 X-84.8585 Y37.3338
G01 X-84.8536 Y37.3306
G01 X-84.8002 Y37.2985
G01 X-84.7950 Y37.2957
G01 X-84.7387 Y37.2691
G01 X-84.7332 Y37.2668
G01 X-84.6745 Y37.2459
G01 X-84.6689 Y37.2441
G01 X-84.6085 Y37.2290
G01 X-84.6027 Y37.2279
G01 X-84.5410 Y37.2187
G01 X-84.5352 Y37.2181
G01 X-84.4729 Y37.2151
G01 X-84.4671 Y37.2151
G01 X-84.4048 Y37.2181
G01 X-84.3990 Y37.2187
G01 X-84.3373 Y37.2279
G01 X-84.3315 Y37.2290
G01 X-84.2711 Y37.2441
G01 X-84.2655 Y37.2459
G01 X-84.2068 Y37.2668
G01 X-84.2013 Y37.2691
G01 X-84.1450 Y37.2957
G01 X-84.1398 Y37.2985
G01 X-84.0864 Y37.3306
G01 X-84.0815 Y37.3338
G01 X-84.0314 Y37.3709
G01 X-84.0269 Y37.3747
G01 X-83.9807 Y37.4165
G01 X-83.9765 Y37.4207
G01 X-83.9347 Y37.4669
G01 X-83.9309 Y37.4714
G01 X-83.8938 Y37.5215
G01 X-83.8906 Y37.5264
G01 X-83.8585 Y37.5798
G01 X-83.8557 Y37.5850
G01 X-83.8291 Y37.6413
G01 X-83.8268 Y37.6468
G01 X-83.8059 Y37.7055
G01 X-83.8041 Y37.7111
G01 X-83.7890 Y37.7715
G01 X-83.7879 Y37.7773
G01 X-83.7787 Y37.8390
G01 X-83.7781 Y37.8448
G01 X-83.7751 Y37.9071
G01 X-83.7751 Y37.9129
G00 Z2.5000
G00 X-86.3151 Y37.9129
G01 F50.00
G01 Z-0.0567
G01 F100.00
G01 X-86.3181 Y37.9752
G01 X-86.3187 Y37.9810
G01 X-86.3279 Y38.0427
G01 X-86.3290 Y38.0485
G01 X-86.3441 Y38.1089
G01 X-86.3459 Y38.1145
G01 X-86.3668 Y38.1732
G01 X-86.3691 Y38.1787
G01 X-86.3957 Y38.2350
G01 X-86.3985 Y38.2402
G01 X-86.4306 Y38.2936
G01 X-86.4338 Y38.2985
G01 X-86.4709 Y38.3486
G01 X-86.4747 Y38.3531
G01 X-86.5165 Y38.3993
G01 X-86.5207 Y38.4035
G01 X-86.5669 Y38.4453
G01 X-86.5714 Y38.4491
G01 X-86.6215 Y38.4862
G01 X-86.6264 Y38.4894
G01 X-86.6798 Y38.5215
G01 X-86.6850 Y38.5243
G01 X-86.7413 Y38.5509
G01 X-86.7468 Y38.5532
G01 X-86.8055 Y38.5741
G01 X-86.8111 Y38.5759
G01 X-86.8715 Y38.5910
G01 X-86.8773 Y38.5921
G01 X-86.9390 Y38.6013
G01 X-86.9448 Y38.6019
G01 X-87.0071 Y38.6049
G01 X-87.0129 Y38.6049
G01 X-87.0752 Y38.6019
G01 X-87.0810 Y38.6013
G01 X-87.1427 Y38.5921
G01 X-87.1485 Y38.5910
G01 X-87.2089 Y38.5759
G01 X-87.2145 Y38.5741
G01 X-87.2732 Y38.5532
G01 X-87.2787 Y38.5509
G01 X-87.3350 Y38.5243
G01 X-87.3402 Y38.5215
G01 X-87.3936 Y38.4894
G01 X-87.3985 Y38.4862
G01 X-87.4486 Y38.4491
G01 X-87.4531 Y38.4453
G01 X-87.4993 Y38.4035
G01 X-87.5035 Y38.3993
G01 X-87.5453 Y38.3531
G01 X-87.5491 Y38.3486
G01 X-87.5862 Y38.2985
G01 X-87.5894 Y38.2936
G01 X-87.6215 Y38.2402
G01 X-87.6243 Y38.2350
G01 X-87.6509 Y38.1787
G01 X-87.6532 Y38.1732
G01 X-87.6741 Y38.1145
G01 X-87.6759 Y38.1089
G01 X-87.6910 Y38.0485
G01 X-87.6921 Y38.0427
G01 X-87.7013 Y37.9810
G01 X-87.7019 Y37.9752
G01 X-87.7049 Y37.9129
G01 X-87.7049 Y37.9071
G01 X-87.7019 Y37.8448
G01 X-87.7013 Y37.8390
G01 X-87.6921 Y37.7773
G01 X-87.6910 Y37.7715
G01 X-87.6759 Y37.7111
G01 X-87.6741 Y37.7055
G01 X-87.6532 Y37.6468
G01 X-87.6509 Y37.6413
G01 X-87.6243 Y37.5850
G01 X-87.6215 Y37.5798
G01 X-87.5894 Y37.5264
G01 X-87.5862 Y37.5215
G01 X-87.5491 Y37.4714
G01 X-87.5453 Y37.4669
G01 X-87.5035 Y37.4207
G01 X-87.4993 Y37.4165
G01 X-87.4531 Y37.3747
G01 X-87.4486 Y37.3709
G01 X-87.3985 Y37.3338
G01 X-87.3936 Y37.3306
G01 X-87.3402 Y37.2985
G01 X-87.3350 Y37.2957
G01 X-87.2787 Y37.2691
G01 X-87.2732 Y37.2668
G01 X-87.2145 Y37.2459
G01 X-87.2089 Y37.2441
G01 X-87.1485 Y37.2290
G01 X-87.1427 Y37.2279
G01 X-87.0810 Y37.2187
G01 X-87.0752 Y37.2181
G01 X-87.0129 Y37.2151
G01 X-87.0071 Y37.2151
G01 X-86.9448 Y37.2181
G01 X-86.9390 Y37.2187
G01 X-86.8773 Y37.2279
G01 X-86.8715 Y37.2290
G01 X-86.8111 Y37.2441
G01 X-86.8055 Y37.2459
G01 X-86.7468 Y37.2668
G01 X-86.7413 Y37.2691
G01 X-86.6850 Y37.2957
G01 X-86.6798 Y37.2985
G01 X-86.6264 Y37.3306
G01 X-86.6215 Y37.3338
G01 X-86.5714 Y37.3709
G01 X-86.5669 Y37.3747
G01 X-86.5207 Y37.4165
G01 X-86.5165 Y37.4207
G01 X-86.4747 Y37.4669
G01 X-86.4709 Y37.4714
G01 X-86.4338 Y37.5215
G01 X-86.4306 Y37.5264
G01 X-86.3985 Y37.5798
G01 X-86.3957 Y37.5850
G01 X-86.3691 Y37.6413
G01 X-86.3668 Y37.6468
G01 X-86.3459 Y37.7055
G01 X-86.3441 Y37.7111
G01 X-86.3290 Y37.7715
G01 X-86.3279 Y37.7773
G01 X-86.3187 Y37.8390
G01 X-86.3181 Y37.8448
G01 X-86.3151 Y37.9071
G01 X-86.3151 Y37.9129
G00 Z2.5000
G00 X-84.4700 Y44.8347
G01 F50.00
G01 Z-0.0567
G01 F100.00
G01 X-81.9300 Y44.8347
G01 X-81.8648 Y44.8378
G01 X-81.8589 Y44.8384
G01 X-81.7973 Y44.8475
G01 X-81.7915 Y44.8487
G01 X-81.7310 Y44.8638
G01 X-81.7254 Y44.8655
G01 X-81.6667 Y44.8866
G01 X-81.6612 Y44.8888
G01 X-81.6049 Y44.9155
G01 X-81.5997 Y44.9182
G01 X-81.5462 Y44.9503
G01 X-81.5413 Y44.9536
G01 X-81.4912 Y44.9907
G01 X-81.4867 Y44.9944
G01 X-81.4405 Y45.0363
G01 X-81.4363 Y45.0405
G01 X-81.3944 Y45.0867
G01 X-81.3907 Y45.0912
G01 X-81.3536 Y45.1413
G01 X-81.3503 Y45.1462
G01 X-81.3182 Y45.1997
G01 X-81.3155 Y45.2049
G01 X-81.2888 Y45.2612
G01 X-81.2866 Y45.2667
G01 X-81.2655 Y45.3254
G01 X-81.2638 Y45.3310
G01 X-81.2487 Y45.3915
G01 X-81.2475 Y45.3973
G01 X-81.2384 Y45.4589
G01 X-81.2378 Y45.4648
G01 X-81.2348 Y45.5271
G01 X-81.2348 Y45.5329
G01 X-81.2378 Y45.5952
G01 X-81.2384 Y45.6011
G01 X-81.2475 Y45.6627
G01 X-81.2487 Y45.6685
G01 X-81.2638 Y45.7290
G01 X-81.2655 Y45.7346
G01 X-81.2866 Y45.7933
G01 X-81.2888 Y45.7988
G01 X-81.3155 Y45.8551
G01 X-81.3182 Y45.8603
G01 X-81.3503 Y45.9138
G01 X-81.3536 Y45.9187
G01 X-81.3907 Y45.9688
G01 X-81.3944 Y45.9733
G01 X-81.4363 Y46.0195
G01 X-81.4405 Y46.0237
G01 X-81.4867 Y46.0656
G01 X-81.4912 Y46.0693
G01 X-81.5413 Y46.1064
G01 X-81.5462 Y46.1097
G01 X-81.5997 Y46.1418
G01 X-81.6049 Y46.1445
G01 X-81.6612 Y46.1712
G01 X-81.6667 Y46.1734
G01 X-81.7254 Y46.1945
G01 X-81.7310 Y46.1962
G01 X-81.7915 Y46.2113
G01 X-81.7973 Y46.2125
G01 X-81.8589 Y46.2216
G01 X-81.8648 Y46.2222
G01 X-81.9300 Y46.2253
G01 X-84.4700 Y46.2253
G01 X-84.5352 Y46.2222
G01 X-84.5411 Y46.2216
G01 X-84.6027 Y46.2125
G01 X-84.6085 Y46.2113
G01 X-84.6690 Y46.1962
G01 X-84.6746 Y46.1945
G01 X-84.7333 Y46.1734
G01 X-84.7388 Y46.1712
G01 X-84.7951 Y46.1445
G01 X-84.8003 Y46.1418
G01 X-84.8538 Y46.1097
G01 X-84.8587 Y46.1064
G01 X-84.9088 Y46.0693
G01 X-84.9133 Y46.0656
G01 X-84.9595 Y46.0237
G01 X-84.9637 Y46.0195
G01 X-85.0056 Y45.9733
G01 X-85.0093 Y45.9688
G01 X-85.0464 Y45.9187
G01 X-85.0497 Y45.9138
G01 X-85.0818 Y45.8603
G01 X-85.0845 Y45.8551
G01 X-85.1112 Y45.7988
G01 X-85.1134 Y45.7933
G01 X-85.1345 Y45.7346
G01 X-85.1362 Y45.7290
G01 X-85.1513 Y45.6685
G01 X-85.1525 Y45.6627
G01 X-85.1616 Y45.6011
G01 X-85.1622 Y45.5952
G01 X-85.1652 Y45.5329
G01 X-85.1652 Y45.5271
G01 X-85.1622 Y45.4648
G01 X-85.1616 Y45.4589
G01 X-85.1525 Y45.3973
G01 X-85.1513 Y45.3915
G01 X-85.1362 Y45.3310
G01 X-85.1345 Y45.3254
G01 X-85.1134 Y45.2667
G01 X-85.1112 Y45.2612
G01 X-85.0845 Y45.2049
G01 X-85.0818 Y45.1997
G01 X-85.0497 Y45.1462
G01 X-85.0464 Y45.1413
G01 X-85.0093 Y45.0912
G01 X-85.0056 Y45.0867
G01 X-84.9637 Y45.0405
G01 X-84.9595 Y45.0363
G01 X-84.9133 Y44.9944
G01 X-84.9088 Y44.9907
G01 X-84.8587 Y44.9536
G01 X-84.8538 Y44.9503
G01 X-84.8003 Y44.9182
G01 X-84.7951 Y44.9155
G01 X-84.7388 Y44.8888
G01 X-84.7333 Y44.8866
G01 X-84.6746 Y44.8655
G01 X-84.6690 Y44.8638
G01 X-84.6085 Y44.8487
G01 X-84.6027 Y44.8475
G01 X-84.5411 Y44.8384
G01 X-84.5352 Y44.8378
G01 X-84.4700 Y44.8347
G00 Z2.5000
G00 X-79.8817 Y43.9983
G01 F50.00
G01 Z-0.0567
G01 F100.00
G01 X-77.0895 Y41.2063
G01 X-77.0433 Y41.1644
G01 X-77.0388 Y41.1607
G01 X-76.9887 Y41.1236
G01 X-76.9838 Y41.1203
G01 X-76.9303 Y41.0882
G01 X-76.9251 Y41.0855
G01 X-76.8688 Y41.0588
G01 X-76.8633 Y41.0566
G01 X-76.8046 Y41.0355
G01 X-76.7990 Y41.0338
G01 X-76.7385 Y41.0187
G01 X-76.7327 Y41.0175
G01 X-76.6711 Y41.0084
G01 X-76.6652 Y41.0078
G01 X-76.6000 Y41.0047
G01 X-60.6880 Y41.0047
G01 X-58.6853 Y39.0020
G01 X-58.6852 Y31.8871
G01 X-58.6822 Y31.8248
G01 X-58.6816 Y31.8189
G01 X-58.6725 Y31.7573
G01 X-58.6713 Y31.7515
G01 X-58.6562 Y31.6910
G01 X-58.6545 Y31.6854
G01 X-58.6334 Y31.6267
G01 X-58.6312 Y31.6212
G01 X-58.6045 Y31.5649
G01 X-58.6018 Y31.5597
G01 X-58.5697 Y31.5062
G01 X-58.5664 Y31.5013
G01 X-58.5293 Y31.4512
G01 X-58.5256 Y31.4467
G01 X-58.4817 Y31.3983
G01 X-45.8917 Y18.8083
G01 X-45.8433 Y18.7644
G01 X-45.8388 Y18.7607
G01 X-45.7887 Y18.7236
G01 X-45.7838 Y18.7203
G01 X-45.7303 Y18.6882
G01 X-45.7251 Y18.6855
G01 X-45.6688 Y18.6588
G01 X-45.6633 Y18.6566
G01 X-45.6046 Y18.6355
G01 X-45.5990 Y18.6338
G01 X-45.5385 Y18.6187
G01 X-45.5327 Y18.6175
G01 X-45.4711 Y18.6084
G01 X-45.4652 Y18.6078
G01 X-45.4000 Y18.6047
G01 X-39.6480 Y18.6047
G01 X-37.6017 Y16.5584
G01 X-37.6059 Y16.4729
G01 X-37.6059 Y16.4671
G01 X-37.6010 Y16.3675
G01 X-37.6005 Y16.3616
G01 X-37.5858 Y16.2630
G01 X-37.5847 Y16.2572
G01 X-37.5605 Y16.1605
G01 X-37.5587 Y16.1549
G01 X-37.5252 Y16.0610
G01 X-37.5229 Y16.0555
G01 X-37.4803 Y15.9654
G01 X-37.4775 Y15.9602
G01 X-37.4262 Y15.8747
G01 X-37.4230 Y15.8698
G01 X-37.3636 Y15.7897
G01 X-37.3598 Y15.7852
G01 X-37.2929 Y15.7113
G01 X-37.2887 Y15.7071
G01 X-37.2148 Y15.6402
G01 X-37.2103 Y15.6364
G01 X-37.1302 Y15.5770
G01 X-37.1253 Y15.5738
G01 X-37.0398 Y15.5225
G01 X-37.0346 Y15.5197
G01 X-36.9445 Y15.4771
G01 X-36.9390 Y15.4748
G01 X-36.8451 Y15.4413
G01 X-36.8395 Y15.4395
G01 X-36.7428 Y15.4153
G01 X-36.7370 Y15.4142
G01 X-36.6384 Y15.3995
G01 X-36.6325 Y15.3990
G01 X-36.5329 Y15.3941
G01 X-36.5271 Y15.3941
G01 X-36.4275 Y15.3990
G01 X-36.4216 Y15.3995
G01 X-36.3230 Y15.4142
G01 X-36.3172 Y15.4153
G01 X-36.2205 Y15.4395
G01 X-36.2149 Y15.4413
G01 X-36.1210 Y15.4748
G01 X-36.1155 Y15.4771
G01 X-36.0254 Y15.5197
G01 X-36.0202 Y15.5225
G01 X-35.9347 Y15.5738
G01 X-35.9298 Y15.5770
G01 X-35.8497 Y15.6364
G01 X-35.8452 Y15.6402
G01 X-35.7713 Y15.7071
G01 X-35.7671 Y15.7113
G01 X-35.7002 Y15.7852
G01 X-35.6964 Y15.7897
G01 X-35.6370 Y15.8698
G01 X-35.6338 Y15.8747
G01 X-35.5825 Y15.9602
G01 X-35.5797 Y15.9654
G01 X-35.5371 Y16.0555
G01 X-35.5348 Y16.0610
G01 X-35.5013 Y16.1549
G01 X-35.4995 Y16.1605
G01 X-35.4753 Y16.2572
G01 X-35.4742 Y16.2630
G01 X-35.4595 Y16.3616
G01 X-35.4590 Y16.3675
G01 X-35.4541 Y16.4671
G01 X-35.4541 Y16.4729
G01 X-35.4590 Y16.5725
G01 X-35.4595 Y16.5784
G01 X-35.4742 Y16.6770
G01 X-35.4753 Y16.6828
G01 X-35.4995 Y16.7795
G01 X-35.5013 Y16.7851
G01 X-35.5348 Y16.8790
G01 X-35.5371 Y16.8845
G01 X-35.5797 Y16.9746
G01 X-35.5825 Y16.9798
G01 X-35.6338 Y17.0653
G01 X-35.6370 Y17.0702
G01 X-35.6964 Y17.1503
G01 X-35.7002 Y17.1548
G01 X-35.7671 Y17.2287
G01 X-35.7713 Y17.2329
G01 X-35.8452 Y17.2998
G01 X-35.8497 Y17.3036
G01 X-35.9298 Y17.3630
G01 X-35.9347 Y17.3662
G01 X-36.0202 Y17.4175
G01 X-36.0254 Y17.4203
G01 X-36.1155 Y17.4629
G01 X-36.1210 Y17.4652
G01 X-36.2149 Y17.4987
G01 X-36.2205 Y17.5005
G01 X-36.3172 Y17.5247
G01 X-36.3230 Y17.5258
G01 X-36.4216 Y17.5405
G01 X-36.4275 Y17.5410
G01 X-36.5271 Y17.5459
G01 X-36.5329 Y17.5459
G01 X-36.6184 Y17.5417
G01 X-38.8683 Y19.7917
G01 X-38.9167 Y19.8356
G01 X-38.9212 Y19.8393
G01 X-38.9713 Y19.8764
G01 X-38.9762 Y19.8797
G01 X-39.0297 Y19.9118
G01 X-39.0349 Y19.9145
G01 X-39.0912 Y19.9412
G01 X-39.0967 Y19.9434
G01 X-39.1554 Y19.9645
G01 X-39.1610 Y19.9662
G01 X-39.2215 Y19.9813
G01 X-39.2273 Y19.9825
G01 X-39.2889 Y19.9916
G01 X-39.2948 Y19.9922
G01 X-39.3600 Y19.9953
G01 X-45.1120 Y19.9953
G01 X-57.2947 Y32.1780
G01 X-57.2947 Y39.2900
G01 X-57.2978 Y39.3552
G01 X-57.2984 Y39.3611
G01 X-57.3075 Y39.4227
G01 X-57.3087 Y39.4285
G01 X-57.3238 Y39.4890
G01 X-57.3255 Y39.4946
G01 X-57.3466 Y39.5533
G01 X-57.3488 Y39.5588
G01 X-57.3755 Y39.6151
G01 X-57.3782 Y39.6203
G01 X-57.4103 Y39.6738
G01 X-57.4136 Y39.6787
G01 X-57.4507 Y39.7288
G01 X-57.4544 Y39.7333
G01 X-57.4983 Y39.7817
G01 X-59.9083 Y42.1917
G01 X-59.9567 Y42.2356
G01 X-59.9612 Y42.2393
G01 X-60.0113 Y42.2764
G01 X-60.0162 Y42.2797
G01 X-60.0697 Y42.3118
G01 X-60.0749 Y42.3145
G01 X-60.1312 Y42.3412
G01 X-60.1367 Y42.3434
G01 X-60.1954 Y42.3645
G01 X-60.2010 Y42.3662
G01 X-60.2615 Y42.3813
G01 X-60.2673 Y42.3825
G01 X-60.3289 Y42.3916
G01 X-60.3348 Y42.3922
G01 X-60.4000 Y42.3953
G01 X-76.3120 Y42.3953
G01 X-78.6947 Y44.7780
G01 X-78.6947 Y45.5300
G01 X-78.6978 Y45.5952
G01 X-78.6984 Y45.6011
G01 X-78.7075 Y45.6627
G01 X-78.7087 Y45.6685
G01 X-78.7238 Y45.7290
G01 X-78.7255 Y45.7346
G01 X-78.7466 Y45.7933
G01 X-78.7488 Y45.7988
G01 X-78.7755 Y45.8551
G01 X-78.7782 Y45.8603
G01 X-78.8103 Y45.9138
G01 X-78.8136 Y45.9187
G01 X-78.8507 Y45.9688
G01 X-78.8544 Y45.9733
G01 X-78.8963 Y46.0195
G01 X-78.9005 Y46.0237
G01 X-78.9467 Y46.0656
G01 X-78.9512 Y46.0693
G01 X-79.0013 Y46.1064
G01 X-79.0062 Y46.1097
G01 X-79.0597 Y46.1418
G01 X-79.0649 Y46.1445
G01 X-79.1212 Y46.1712
G01 X-79.1267 Y46.1734
G01 X-79.1854 Y46.1945
G01 X-79.1910 Y46.1962
G01 X-79.2515 Y46.2113
G01 X-79.2573 Y46.2125
G01 X-79.3189 Y46.2216
G01 X-79.3248 Y46.2222
G01 X-79.3871 Y46.2252
G01 X-79.3929 Y46.2252
G01 X-79.4552 Y46.2222
G01 X-79.4611 Y46.2216
G01 X-79.5227 Y46.2125
G01 X-79.5285 Y46.2113
G01 X-79.5890 Y46.1962
G01 X-79.5946 Y46.1945
G01 X-79.6533 Y46.1734
G01 X-79.6588 Y46.1712
G01 X-79.7151 Y46.1445
G01 X-79.7203 Y46.1418
G01 X-79.7738 Y46.1097
G01 X-79.7787 Y46.1064
G01 X-79.8288 Y46.0693
G01 X-79.8333 Y46.0656
G01 X-79.8795 Y46.0237
G01 X-79.8837 Y46.0195
G01 X-79.9256 Y45.9733
G01 X-79.9293 Y45.9688
G01 X-79.9664 Y45.9187
G01 X-79.9697 Y45.9138
G01 X-80.0018 Y45.8603
G01 X-80.0045 Y45.8551
G01 X-80.0312 Y45.7988
G01 X-80.0334 Y45.7933
G01 X-80.0545 Y45.7346
G01 X-80.0562 Y45.7290
G01 X-80.0713 Y45.6685
G01 X-80.0725 Y45.6627
G01 X-80.0816 Y45.6011
G01 X-80.0822 Y45.5952
G01 X-80.0853 Y45.5300
G01 X-80.0853 Y44.4900
G01 X-80.0822 Y44.4248
G01 X-80.0816 Y44.4189
G01 X-80.0725 Y44.3573
G01 X-80.0713 Y44.3515
G01 X-80.0562 Y44.2910
G01 X-80.0545 Y44.2854
G01 X-80.0334 Y44.2267
G01 X-80.0312 Y44.2212
G01 X-80.0045 Y44.1649
G01 X-80.0018 Y44.1597
G01 X-79.9697 Y44.1062
G01 X-79.9664 Y44.1013
G01 X-79.9293 Y44.0512
G01 X-79.9256 Y44.0467
G01 X-79.8817 Y43.9983
G00 Z2.5000
G00 X-77.3417 Y44.5583
G01 F50.00
G01 Z-0.0567
G01 F100.00
G01 X-75.9917 Y43.2083
G01 X-75.9433 Y43.1644
G01 X-75.9388 Y43.1607
G01 X-75.8887 Y43.1236
G01 X-75.8838 Y43.1203
G01 X-75.8303 Y43.0882
G01 X-75.8251 Y43.0855
G01 X-75.7688 Y43.0588
G01 X-75.7633 Y43.0566
G01 X-75.7046 Y43.0355
G01 X-75.6990 Y43.0338
G01 X-75.6385 Y43.0187
G01 X-75.6327 Y43.0175
G01 X-75.5711 Y43.0084
G01 X-75.5652 Y43.0078
G01 X-75.5000 Y43.0047
G01 X-57.9880 Y43.0047
G01 X-53.6052 Y38.6219
G01 X-53.6053 Y32.9100
G01 X-53.6022 Y32.8448
G01 X-53.6016 Y32.8389
G01 X-53.5925 Y32.7773
G01 X-53.5913 Y32.7715
G01 X-53.5762 Y32.7110
G01 X-53.5745 Y32.7054
G01 X-53.5534 Y32.6467
G01 X-53.5512 Y32.6412
G01 X-53.5245 Y32.5849
G01 X-53.5218 Y32.5797
G01 X-53.4897 Y32.5262
G01 X-53.4864 Y32.5213
G01 X-53.4493 Y32.4712
G01 X-53.4456 Y32.4667
G01 X-53.4017 Y32.4183
G01 X-41.8917 Y20.9083
G01 X-41.8433 Y20.8644
G01 X-41.8388 Y20.8607
G01 X-41.7887 Y20.8236
G01 X-41.7838 Y20.8203
G01 X-41.7303 Y20.7882
G01 X-41.7251 Y20.7855
G01 X-41.6688 Y20.7588
G01 X-41.6633 Y20.7566
G01 X-41.6046 Y20.7355
G01 X-41.5990 Y20.7338
G01 X-41.5385 Y20.7187
G01 X-41.5327 Y20.7175
G01 X-41.4711 Y20.7084
G01 X-41.4652 Y20.7078
G01 X-41.4000 Y20.7047
G01 X-23.5380 Y20.7047
G01 X-19.3717 Y16.5384
G01 X-19.3759 Y16.4529
G01 X-19.3759 Y16.4471
G01 X-19.3710 Y16.3475
G01 X-19.3705 Y16.3416
G01 X-19.3558 Y16.2430
G01 X-19.3547 Y16.2372
G01 X-19.3305 Y16.1405
G01 X-19.3287 Y16.1349
G01 X-19.2952 Y16.0410
G01 X-19.2929 Y16.0355
G01 X-19.2503 Y15.9454
G01 X-19.2475 Y15.9402
G01 X-19.1962 Y15.8547
G01 X-19.1930 Y15.8498
G01 X-19.1336 Y15.7697
G01 X-19.1298 Y15.7652
G01 X-19.0629 Y15.6913
G01 X-19.0587 Y15.6871
G01 X-18.9848 Y15.6202
G01 X-18.9803 Y15.6164
G01 X-18.9002 Y15.5570
G01 X-18.8953 Y15.5538
G01 X-18.8098 Y15.5025
G01 X-18.8046 Y15.4997
G01 X-18.7145 Y15.4571
G01 X-18.7090 Y15.4548
G01 X-18.6151 Y15.4213
G01 X-18.6095 Y15.4195
G01 X-18.5128 Y15.3953
G01 X-18.5070 Y15.3942
G01 X-18.4084 Y15.3795
G01 X-18.4025 Y15.3790
G01 X-18.3029 Y15.3741
G01 X-18.2971 Y15.3741
G01 X-18.1975 Y15.3790
G01 X-18.1916 Y15.3795
G01 X-18.0930 Y15.3942
G01 X-18.0872 Y15.3953
G01 X-17.9905 Y15.4195
G01 X-17.9849 Y15.4213
G01 X-17.8910 Y15.4548
G01 X-17.8855 Y15.4571
G01 X-17.7954 Y15.4997
G01 X-17.7902 Y15.5025
G01 X-17.7047 Y15.5538
G01 X-17.6998 Y15.5570
G01 X-17.6197 Y15.6164
G01 X-17.6152 Y15.6202
G01 X-17.5413 Y15.6871
G01 X-17.5371 Y15.6913
G01 X-17.4702 Y15.7652
G01 X-17.4664 Y15.7697
G01 X-17.4070 Y15.8498
G01 X-17.4038 Y15.8547
G01 X-17.3525 Y15.9402
G01 X-17.3497 Y15.9454
G01 X-17.3071 Y16.0355
G01 X-17.3048 Y16.0410
G01 X-17.2713 Y16.1349
G01 X-17.2695 Y16.1405
G01 X-17.2453 Y16.2372
G01 X-17.2442 Y16.2430
G01 X-17.2295 Y16.3416
G01 X-17.2290 Y16.3475
G01 X-17.2241 Y16.4471
G01 X-17.2241 Y16.4529
G01 X-17.2290 Y16.5525
G01 X-17.2295 Y16.5584
G01 X-17.2442 Y16.6570
G01 X-17.2453 Y16.6628
G01 X-17.2695 Y16.7595
G01 X-17.2713 Y16.7651
G01 X-17.3048 Y16.8590
G01 X-17.3071 Y16.8645
G01 X-17.3497 Y16.9546
G01 X-17.3525 Y16.9598
G01 X-17.4038 Y17.0453
G01 X-17.4070 Y17.0502
G01 X-17.4664 Y17.1303
G01 X-17.4702 Y17.1348
G01 X-17.5371 Y17.2087
G01 X-17.5413 Y17.2129
G01 X-17.6152 Y17.2798
G01 X-17.6197 Y17.2836
G01 X-17.6998 Y17.3430
G01 X-17.7047 Y17.3462
G01 X-17.7902 Y17.3975
G01 X-17.7954 Y17.4003
G01 X-17.8855 Y17.4429
G01 X-17.8910 Y17.4452
G01 X-17.9849 Y17.4787
G01 X-17.9905 Y17.4805
G01 X-18.0872 Y17.5047
G01 X-18.0930 Y17.5058
G01 X-18.1916 Y17.5205
G01 X-18.1975 Y17.5210
G01 X-18.2971 Y17.5259
G01 X-18.3029 Y17.5259
G01 X-18.3884 Y17.5217
G01 X-22.7583 Y21.8917
G01 X-22.8067 Y21.9356
G01 X-22.8112 Y21.9393
G01 X-22.8613 Y21.9764
G01 X-22.8662 Y21.9797
G01 X-22.9197 Y22.0118
G01 X-22.9249 Y22.0145
G01 X-22.9812 Y22.0412
G01 X-22.9867 Y22.0434
G01 X-23.0454 Y22.0645
G01 X-23.0510 Y22.0662
G01 X-23.1115 Y22.0813
G01 X-23.1173 Y22.0825
G01 X-23.1789 Y22.0916
G01 X-23.1848 Y22.0922
G01 X-23.2500 Y22.0953
G01 X-41.1120 Y22.0953
G01 X-52.2147 Y33.1980
G01 X-52.2146 Y38.9099
G01 X-52.2177 Y38.9751
G01 X-52.2183 Y38.9809
G01 X-52.2274 Y39.0426
G01 X-52.2286 Y39.0484
G01 X-52.2437 Y39.1089
G01 X-52.2454 Y39.1145
G01 X-52.2664 Y39.1732
G01 X-52.2687 Y39.1786
G01 X-52.2953 Y39.2350
G01 X-52.2981 Y39.2402
G01 X-52.3302 Y39.2937
G01 X-52.3334 Y39.2986
G01 X-52.3706 Y39.3487
G01 X-52.3743 Y39.3532
G01 X-52.4182 Y39.4015
G01 X-57.2083 Y44.1917
G01 X-57.2567 Y44.2356
G01 X-57.2612 Y44.2393
G01 X-57.3113 Y44.2764
G01 X-57.3162 Y44.2797
G01 X-57.3697 Y44.3118
G01 X-57.3749 Y44.3145
G01 X-57.4312 Y44.3412
G01 X-57.4367 Y44.3434
G01 X-57.4954 Y44.3645
G01 X-57.5010 Y44.3662
G01 X-57.5615 Y44.3813
G01 X-57.5673 Y44.3825
G01 X-57.6289 Y44.3916
G01 X-57.6348 Y44.3922
G01 X-57.7000 Y44.3953
G01 X-75.2120 Y44.3953
G01 X-76.1547 Y45.3380
G01 X-76.1547 Y45.5300
G01 X-76.1578 Y45.5952
G01 X-76.1584 Y45.6011
G01 X-76.1675 Y45.6627
G01 X-76.1687 Y45.6685
G01 X-76.1838 Y45.7290
G01 X-76.1855 Y45.7346
G01 X-76.2066 Y45.7933
G01 X-76.2088 Y45.7988
G01 X-76.2355 Y45.8551
G01 X-76.2382 Y45.8603
G01 X-76.2703 Y45.9138
G01 X-76.2736 Y45.9187
G01 X-76.3107 Y45.9688
G01 X-76.3144 Y45.9733
G01 X-76.3563 Y46.0195
G01 X-76.3605 Y46.0237
G01 X-76.4067 Y46.0656
G01 X-76.4112 Y46.0693
G01 X-76.4613 Y46.1064
G01 X-76.4662 Y46.1097
G01 X-76.5197 Y46.1418
G01 X-76.5249 Y46.1445
G01 X-76.5812 Y46.1712
G01 X-76.5867 Y46.1734
G01 X-76.6454 Y46.1945
G01 X-76.6510 Y46.1962
G01 X-76.7115 Y46.2113
G01 X-76.7173 Y46.2125
G01 X-76.7789 Y46.2216
G01 X-76.7848 Y46.2222
G01 X-76.8471 Y46.2252
G01 X-76.8529 Y46.2252
G01 X-76.9152 Y46.2222
G01 X-76.9211 Y46.2216
G01 X-76.9827 Y46.2125
G01 X-76.9885 Y46.2113
G01 X-77.0490 Y46.1962
G01 X-77.0546 Y46.1945
G01 X-77.1133 Y46.1734
G01 X-77.1188 Y46.1712
G01 X-77.1751 Y46.1445
G01 X-77.1803 Y46.1418
G01 X-77.2338 Y46.1097
G01 X-77.2387 Y46.1064
G01 X-77.2888 Y46.0693
G01 X-77.2933 Y46.0656
G01 X-77.3395 Y46.0237
G01 X-77.3437 Y46.0195
G01 X-77.3856 Y45.9733
G01 X-77.3893 Y45.9688
G01 X-77.4264 Y45.9187
G01 X-77.4297 Y45.9138
G01 X-77.4618 Y45.8603
G01 X-77.4645 Y45.8551
G01 X-77.4912 Y45.7988
G01 X-77.4934 Y45.7933
G01 X-77.5145 Y45.7346
G01 X-77.5162 Y45.7290
G01 X-77.5313 Y45.6685
G01 X-77.5325 Y45.6627
G01 X-77.5416 Y45.6011
G01 X-77.5422 Y45.5952
G01 X-77.5453 Y45.5300
G01 X-77.5453 Y45.0500
G01 X-77.5422 Y44.9848
G01 X-77.5416 Y44.9789
G01 X-77.5325 Y44.9173
G01 X-77.5313 Y44.9115
G01 X-77.5162 Y44.8510
G01 X-77.5145 Y44.8454
G01 X-77.4934 Y44.7867
G01 X-77.4912 Y44.7812
G01 X-77.4645 Y44.7249
G01 X-77.4618 Y44.7197
G01 X-77.4297 Y44.6662
G01 X-77.4264 Y44.6613
G01 X-77.3893 Y44.6112
G01 X-77.3856 Y44.6067
G01 X-77.3417 Y44.5583
G00 Z2.5000
G00 X-67.4551 Y49.8129
G01 F50.00
G01 Z-0.0567
G01 F100.00
G01 X-67.4581 Y49.8752
G01 X-67.4587 Y49.8810
G01 X-67.4679 Y49.9427
G01 X-67.4690 Y49.9485
G01 X-67.4841 Y50.0089
G01 X-67.4859 Y50.0145
G01 X-67.5068 Y50.0732
G01 X-67.5091 Y50.0787
G01 X-67.5357 Y50.1350
G01 X-67.5385 Y50.1402
G01 X-67.5706 Y50.1936
G01 X-67.5738 Y50.1985
G01 X-67.6109 Y50.2486
G01 X-67.6147 Y50.2531
G01 X-67.6565 Y50.2993
G01 X-67.6607 Y50.3035
G01 X-67.7069 Y50.3453
G01 X-67.7114 Y50.3491
G01 X-67.7615 Y50.3862
G01 X-67.7664 Y50.3894
G01 X-67.8198 Y50.4215
G01 X-67.8250 Y50.4243
G01 X-67.8813 Y50.4509
G01 X-67.8868 Y50.4532
G01 X-67.9455 Y50.4741
G01 X-67.9511 Y50.4759
G01 X-68.0115 Y50.4910
G01 X-68.0173 Y50.4921
G01 X-68.0790 Y50.5013
G01 X-68.0848 Y50.5019
G01 X-68.1471 Y50.5049
G01 X-68.1529 Y50.5049
G01 X-68.2152 Y50.5019
G01 X-68.2210 Y50.5013
G01 X-68.2827 Y50.4921
G01 X-68.2885 Y50.4910
G01 X-68.3489 Y50.4759
G01 X-68.3545 Y50.4741
G01 X-68.4132 Y50.4532
G01 X-68.4187 Y50.4509
G01 X-68.4750 Y50.4243
G01 X-68.4802 Y50.4215
G01 X-68.5336 Y50.3894
G01 X-68.5385 Y50.3862
G01 X-68.5886 Y50.3491
G01 X-68.5931 Y50.3453
G01 X-68.6393 Y50.3035
G01 X-68.6435 Y50.2993
G01 X-68.6853 Y50.2531
G01 X-68.6891 Y50.2486
G01 X-68.7262 Y50.1985
G01 X-68.7294 Y50.1936
G01 X-68.7615 Y50.1402
G01 X-68.7643 Y50.1350
G01 X-68.7909 Y50.0787
G01 X-68.7932 Y50.0732
G01 X-68.8141 Y50.0145
G01 X-68.8159 Y50.0089
G01 X-68.8310 Y49.9485
G01 X-68.8321 Y49.9427
G01 X-68.8413 Y49.8810
G01 X-68.8419 Y49.8752
G01 X-68.8449 Y49.8129
G01 X-68.8449 Y49.8071
G01 X-68.8419 Y49.7448
G01 X-68.8413 Y49.7390
G01 X-68.8321 Y49.6773
G01 X-68.8310 Y49.6715
G01 X-68.8159 Y49.6111
G01 X-68.8141 Y49.6055
G01 X-68.7932 Y49.5468
G01 X-68.7909 Y49.5413
G01 X-68.7643 Y49.4850
G01 X-68.7615 Y49.4798
G01 X-68.7294 Y49.4264
G01 X-68.7262 Y49.4215
G01 X-68.6891 Y49.3714
G01 X-68.6853 Y49.3669
G01 X-68.6435 Y49.3207
G01 X-68.6393 Y49.3165
G01 X-68.5931 Y49.2747
G01 X-68.5886 Y49.2709
G01 X-68.5385 Y49.2338
G01 X-68.5336 Y49.2306
G01 X-68.4802 Y49.1985
G01 X-68.4750 Y49.1957
G01 X-68.4187 Y49.1691
G01 X-68.4132 Y49.1668
G01 X-68.3545 Y49.1459
G01 X-68.3489 Y49.1441
G01 X-68.2885 Y49.1290
G01 X-68.2827 Y49.1279
G01 X-68.2210 Y49.1187
G01 X-68.2152 Y49.1181
G01 X-68.1529 Y49.1151
G01 X-68.1471 Y49.1151
G01 X-68.0848 Y49.1181
G01 X-68.0790 Y49.1187
G01 X-68.0173 Y49.1279
G01 X-68.0115 Y49.1290
G01 X-67.9511 Y49.1441
G01 X-67.9455 Y49.1459
G01 X-67.8868 Y49.1668
G01 X-67.8813 Y49.1691
G01 X-67.8250 Y49.1957
G01 X-67.8198 Y49.1985
G01 X-67.7664 Y49.2306
G01 X-67.7615 Y49.2338
G01 X-67.7114 Y49.2709
G01 X-67.7069 Y49.2747
G01 X-67.6607 Y49.3165
G01 X-67.6565 Y49.3207
G01 X-67.6147 Y49.3669
G01 X-67.6109 Y49.3714
G01 X-67.5738 Y49.4215
G01 X-67.5706 Y49.4264
G01 X-67.5385 Y49.4798
G01 X-67.5357 Y49.4850
G01 X-67.5091 Y49.5413
G01 X-67.5068 Y49.5468
G01 X-67.4859 Y49.6055
G01 X-67.4841 Y49.6111
G01 X-67.4690 Y49.6715
G01 X-67.4679 Y49.6773
G01 X-67.4587 Y49.7390
G01 X-67.4581 Y49.7448
G01 X-67.4551 Y49.8071
G01 X-67.4551 Y49.8129
G00 Z2.5000
G00 X-64.9151 Y49.8129
G01 F50.00
G01 Z-0.0567
G01 F100.00
G01 X-64.9181 Y49.8752
G01 X-64.9187 Y49.8810
G01 X-64.9279 Y49.9427
G01 X-64.9290 Y49.9485
G01 X-64.9441 Y50.0089
G01 X-64.9459 Y50.0145
G01 X-64.9668 Y50.0732
G01 X-64.9691 Y50.0787
G01 X-64.9957 Y50.1350
G01 X-64.9985 Y50.1402
G01 X-65.0306 Y50.1936
G01 X-65.0338 Y50.1985
G01 X-65.0709 Y50.2486
G01 X-65.0747 Y50.2531
G01 X-65.1165 Y50.2993
G01 X-65.1207 Y50.3035
G01 X-65.1669 Y50.3453
G01 X-65.1714 Y50.3491
G01 X-65.2215 Y50.3862
G01 X-65.2264 Y50.3894
G01 X-65.2798 Y50.4215
G01 X-65.2850 Y50.4243
G01 X-65.3413 Y50.4509
G01 X-65.3468 Y50.4532
G01 X-65.4055 Y50.4741
G01 X-65.4111 Y50.4759
G01 X-65.4715 Y50.4910
G01 X-65.4773 Y50.4921
G01 X-65.5390 Y50.5013
G01 X-65.5448 Y50.5019
G01 X-65.6071 Y50.5049
G01 X-65.6129 Y50.5049
G01 X-65.6752 Y50.5019
G01 X-65.6810 Y50.5013
G01 X-65.7427 Y50.4921
G01 X-65.7485 Y50.4910
G01 X-65.8089 Y50.4759
G01 X-65.8145 Y50.4741
G01 X-65.8732 Y50.4532
G01 X-65.8787 Y50.4509
G01 X-65.9350 Y50.4243
G01 X-65.9402 Y50.4215
G01 X-65.9936 Y50.3894
G01 X-65.9985 Y50.3862
G01 X-66.0486 Y50.3491
G01 X-66.0531 Y50.3453
G01 X-66.0993 Y50.3035
G01 X-66.1035 Y50.2993
G01 X-66.1453 Y50.2531
G01 X-66.1491 Y50.2486
G01 X-66.1862 Y50.1985
G01 X-66.1894 Y50.1936
G01 X-66.2215 Y50.1402
G01 X-66.2243 Y50.1350
G01 X-66.2509 Y50.0787
G01 X-66.2532 Y50.0732
G01 X-66.2741 Y50.0145
G01 X-66.2759 Y50.0089
G01 X-66.2910 Y49.9485
G01 X-66.2921 Y49.9427
G01 X-66.3013 Y49.8810
G01 X-66.3019 Y49.8752
G01 X-66.3049 Y49.8129
G01 X-66.3049 Y49.8071
G01 X-66.3019 Y49.7448
G01 X-66.3013 Y49.7390
G01 X-66.2921 Y49.6773
G01 X-66.2910 Y49.6715
G01 X-66.2759 Y49.6111
G01 X-66.2741 Y49.6055
G01 X-66.2532 Y49.5468
G01 X-66.2509 Y49.5413
G01 X-66.2243 Y49.4850
G01 X-66.2215 Y49.4798
G01 X-66.1894 Y49.4264
G01 X-66.1862 Y49.4215
G01 X-66.1491 Y49.3714
G01 X-66.1453 Y49.3669
G01 X-66.1035 Y49.3207
G01 X-66.0993 Y49.3165
G01 X-66.0531 Y49.2747
G01 X-66.0486 Y49.2709
G01 X-65.9985 Y49.2338
G01 X-65.9936 Y49.2306
G01 X-65.9402 Y49.1985
G01 X-65.9350 Y49.1957
G01 X-65.8787 Y49.1691
G01 X-65.8732 Y49.1668
G01 X-65.8145 Y49.1459
G01 X-65.8089 Y49.1441
G01 X-65.7485 Y49.1290
G01 X-65.7427 Y49.1279
G01 X-65.6810 Y49.1187
G01 X-65.6752 Y49.1181
G01 X-65.6129 Y49.1151
G01 X-65.6071 Y49.1151
G01 X-65.5448 Y49.1181
G01 X-65.5390 Y49.1187
G01 X-65.4773 Y49.1279
G01 X-65.4715 Y49.1290
G01 X-65.4111 Y49.1441
G01 X-65.4055 Y49.1459
G01 X-65.3468 Y49.1668
G01 X-65.3413 Y49.1691
G01 X-65.2850 Y49.1957
G01 X-65.2798 Y49.1985
G01 X-65.2264 Y49.2306
G01 X-65.2215 Y49.2338
G01 X-65.1714 Y49.2709
G01 X-65.1669 Y49.2747
G01 X-65.1207 Y49.3165
G01 X-65.1165 Y49.3207
G01 X-65.0747 Y49.3669
G01 X-65.0709 Y49.3714
G01 X-65.0338 Y49.4215
G01 X-65.0306 Y49.4264
G01 X-64.9985 Y49.4798
G01 X-64.9957 Y49.4850
G01 X-64.9691 Y49.5413
G01 X-64.9668 Y49.5468
G01 X-64.9459 Y49.6055
G01 X-64.9441 Y49.6111
G01 X-64.9290 Y49.6715
G01 X-64.9279 Y49.6773
G01 X-64.9187 Y49.7390
G01 X-64.9181 Y49.7448
G01 X-64.9151 Y49.8071
G01 X-64.9151 Y49.8129
G00 Z2.5000
G00 X-62.3751 Y49.8129
G01 F50.00
G01 Z-0.0567
G01 F100.00
G01 X-62.3781 Y49.8752
G01 X-62.3787 Y49.8810
G01 X-62.3879 Y49.9427
G01 X-62.3890 Y49.9485
G01 X-62.4041 Y50.0089
G01 X-62.4059 Y50.0145
G01 X-62.4268 Y50.0732
G01 X-62.4291 Y50.0787
G01 X-62.4557 Y50.1350
G01 X-62.4585 Y50.1402
G01 X-62.4906 Y50.1936
G01 X-62.4938 Y50.1985
G01 X-62.5309 Y50.2486
G01 X-62.5347 Y50.2531
G01 X-62.5765 Y50.2993
G01 X-62.5807 Y50.3035
G01 X-62.6269 Y50.3453
G01 X-62.6314 Y50.3491
G01 X-62.6815 Y50.3862
G01 X-62.6864 Y50.3894
G01 X-62.7398 Y50.4215
G01 X-62.7450 Y50.4243
G01 X-62.8013 Y50.4509
G01 X-62.8068 Y50.4532
G01 X-62.8655 Y50.4741
G01 X-62.8711 Y50.4759
G01 X-62.9315 Y50.4910
G01 X-62.9373 Y50.4921
G01 X-62.9990 Y50.5013
G01 X-63.0048 Y50.5019
G01 X-63.0671 Y50.5049
G01 X-63.0729 Y50.5049
G01 X-63.1352 Y50.5019
G01 X-63.1410 Y50.5013
G01 X-63.2027 Y50.4921
G01 X-63.2085 Y50.4910
G01 X-63.2689 Y50.4759
G01 X-63.2745 Y50.4741
G01 X-63.3332 Y50.4532
G01 X-63.3387 Y50.4509
G01 X-63.3950 Y50.4243
G01 X-63.4002 Y50.4215
G01 X-63.4536 Y50.3894
G01 X-63.4585 Y50.3862
G01 X-63.5086 Y50.3491
G01 X-63.5131 Y50.3453
G01 X-63.5593 Y50.3035
G01 X-63.5635 Y50.2993
G01 X-63.6053 Y50.2531
G01 X-63.6091 Y50.2486
G01 X-63.6462 Y50.1985
G01 X-63.6494 Y50.1936
G01 X-63.6815 Y50.1402
G01 X-63.6843 Y50.1350
G01 X-63.7109 Y50.0787
G01 X-63.7132 Y50.0732
G01 X-63.7341 Y50.0145
G01 X-63.7359 Y50.0089
G01 X-63.7510 Y49.9485
G01 X-63.7521 Y49.9427
G01 X-63.7613 Y49.8810
G01 X-63.7619 Y49.8752
G01 X-63.7649 Y49.8129
G01 X-63.7649 Y49.8071
G01 X-63.7619 Y49.7448
G01 X-63.7613 Y49.7390
G01 X-63.7521 Y49.6773
G01 X-63.7510 Y49.6715
G01 X-63.7359 Y49.6111
G01 X-63.7341 Y49.6055
G01 X-63.7132 Y49.5468
G01 X-63.7109 Y49.5413
G01 X-63.6843 Y49.4850
G01 X-63.6815 Y49.4798
G01 X-63.6494 Y49.4264
G01 X-63.6462 Y49.4215
G01 X-63.6091 Y49.3714
G01 X-63.6053 Y49.3669
G01 X-63.5635 Y49.3207
G01 X-63.5593 Y49.3165
G01 X-63.5131 Y49.2747
G01 X-63.5086 Y49.2709
G01 X-63.4585 Y49.2338
G01 X-63.4536 Y49.2306
G01 X-63.4002 Y49.1985
G01 X-63.3950 Y49.1957
G01 X-63.3387 Y49.1691
G01 X-63.3332 Y49.1668
G01 X-63.2745 Y49.1459
G01 X-63.2689 Y49.1441
G01 X-63.2085 Y49.1290
G01 X-63.2027 Y49.1279
G01 X-63.1410 Y49.1187
G01 X-63.1352 Y49.1181
G01 X-63.0729 Y49.1151
G01 X-63.0671 Y49.1151
G01 X-63.0048 Y49.1181
G01 X-62.9990 Y49.1187
G01 X-62.9373 Y49.1279
G01 X-62.9315 Y49.1290
G01 X-62.8711 Y49.1441
G01 X-62.8655 Y49.1459
G01 X-62.8068 Y49.1668
G01 X-62.8013 Y49.1691
G01 X-62.7450 Y49.1957
G01 X-62.7398 Y49.1985
G01 X-62.6864 Y49.2306
G01 X-62.6815 Y49.2338
G01 X-62.6314 Y49.2709
G01 X-62.6269 Y49.2747
G01 X-62.5807 Y49.3165
G01 X-62.5765 Y49.3207
G01 X-62.5347 Y49.3669
G01 X-62.5309 Y49.3714
G01 X-62.4938 Y49.4215
G01 X-62.4906 Y49.4264
G01 X-62.4585 Y49.4798
G01 X-62.4557 Y49.4850
G01 X-62.4291 Y49.5413
G01 X-62.4268 Y49.5468
G01 X-62.4059 Y49.6055
G01 X-62.4041 Y49.6111
G01 X-62.3890 Y49.6715
G01 X-62.3879 Y49.6773
G01 X-62.3787 Y49.7390
G01 X-62.3781 Y49.7448
G01 X-62.3751 Y49.8071
G01 X-62.3751 Y49.8129
G00 Z2.5000
G00 X-59.8351 Y49.8129
G01 F50.00
G01 Z-0.0567
G01 F100.00
G01 X-59.8381 Y49.8752
G01 X-59.8387 Y49.8810
G01 X-59.8479 Y49.9427
G01 X-59.8490 Y49.9485
G01 X-59.8641 Y50.0089
G01 X-59.8659 Y50.0145
G01 X-59.8868 Y50.0732
G01 X-59.8891 Y50.0787
G01 X-59.9157 Y50.1350
G01 X-59.9185 Y50.1402
G01 X-59.9506 Y50.1936
G01 X-59.9538 Y50.1985
G01 X-59.9909 Y50.2486
G01 X-59.9947 Y50.2531
G01 X-60.0365 Y50.2993
G01 X-60.0407 Y50.3035
G01 X-60.0869 Y50.3453
G01 X-60.0914 Y50.3491
G01 X-60.1415 Y50.3862
G01 X-60.1464 Y50.3894
G01 X-60.1998 Y50.4215
G01 X-60.2050 Y50.4243
G01 X-60.2613 Y50.4509
G01 X-60.2668 Y50.4532
G01 X-60.3255 Y50.4741
G01 X-60.3311 Y50.4759
G01 X-60.3915 Y50.4910
G01 X-60.3973 Y50.4921
G01 X-60.4590 Y50.5013
G01 X-60.4648 Y50.5019
G01 X-60.5271 Y50.5049
G01 X-60.5329 Y50.5049
G01 X-60.5952 Y50.5019
G01 X-60.6010 Y50.5013
G01 X-60.6627 Y50.4921
G01 X-60.6685 Y50.4910
G01 X-60.7289 Y50.4759
G01 X-60.7345 Y50.4741
G01 X-60.7932 Y50.4532
G01 X-60.7987 Y50.4509
G01 X-60.8550 Y50.4243
G01 X-60.8602 Y50.4215
G01 X-60.9136 Y50.3894
G01 X-60.9185 Y50.3862
G01 X-60.9686 Y50.3491
G01 X-60.9731 Y50.3453
G01 X-61.0193 Y50.3035
G01 X-61.0235 Y50.2993
G01 X-61.0653 Y50.2531
G01 X-61.0691 Y50.2486
G01 X-61.1062 Y50.1985
G01 X-61.1094 Y50.1936
G01 X-61.1415 Y50.1402
G01 X-61.1443 Y50.1350
G01 X-61.1709 Y50.0787
G01 X-61.1732 Y50.0732
G01 X-61.1941 Y50.0145
G01 X-61.1959 Y50.0089
G01 X-61.2110 Y49.9485
G01 X-61.2121 Y49.9427
G01 X-61.2213 Y49.8810
G01 X-61.2219 Y49.8752
G01 X-61.2249 Y49.8129
G01 X-61.2249 Y49.8071
G01 X-61.2219 Y49.7448
G01 X-61.2213 Y49.7390
G01 X-61.2121 Y49.6773
G01 X-61.2110 Y49.6715
G01 X-61.1959 Y49.6111
G01 X-61.1941 Y49.6055
G01 X-61.1732 Y49.5468
G01 X-61.1709 Y49.5413
G01 X-61.1443 Y49.4850
G01 X-61.1415 Y49.4798
G01 X-61.1094 Y49.4264
G01 X-61.1062 Y49.4215
G01 X-61.0691 Y49.3714
G01 X-61.0653 Y49.3669
G01 X-61.0235 Y49.3207
G01 X-61.0193 Y49.3165
G01 X-60.9731 Y49.2747
G01 X-60.9686 Y49.2709
G01 X-60.9185 Y49.2338
G01 X-60.9136 Y49.2306
G01 X-60.8602 Y49.1985
G01 X-60.8550 Y49.1957
G01 X-60.7987 Y49.1691
G01 X-60.7932 Y49.1668
G01 X-60.7345 Y49.1459
G01 X-60.7289 Y49.1441
G01 X-60.6685 Y49.1290
G01 X-60.6627 Y49.1279
G01 X-60.6010 Y49.1187
G01 X-60.5952 Y49.1181
G01 X-60.5329 Y49.1151
G01 X-60.5271 Y49.1151
G01 X-60.4648 Y49.1181
G01 X-60.4590 Y49.1187
G01 X-60.3973 Y49.1279
G01 X-60.3915 Y49.1290
G01 X-60.3311 Y49.1441
G01 X-60.3255 Y49.1459
G01 X-60.2668 Y49.1668
G01 X-60.2613 Y49.1691
G01 X-60.2050 Y49.1957
G01 X-60.1998 Y49.1985
G01 X-60.1464 Y49.2306
G01 X-60.1415 Y49.2338
G01 X-60.0914 Y49.2709
G01 X-60.0869 Y49.2747
G01 X-60.0407 Y49.3165
G01 X-60.0365 Y49.3207
G01 X-59.9947 Y49.3669
G01 X-59.9909 Y49.3714
G01 X-59.9538 Y49.4215
G01 X-59.9506 Y49.4264
G01 X-59.9185 Y49.4798
G01 X-59.9157 Y49.4850
G01 X-59.8891 Y49.5413
G01 X-59.8868 Y49.5468
G01 X-59.8659 Y49.6055
G01 X-59.8641 Y49.6111
G01 X-59.8490 Y49.6715
G01 X-59.8479 Y49.6773
G01 X-59.8387 Y49.7390
G01 X-59.8381 Y49.7448
G01 X-59.8351 Y49.8071
G01 X-59.8351 Y49.8129
G00 Z2.5000
G00 X-57.2951 Y49.8129
G01 F50.00
G01 Z-0.0567
G01 F100.00
G01 X-57.2981 Y49.8752
G01 X-57.2987 Y49.8810
G01 X-57.3079 Y49.9427
G01 X-57.3090 Y49.9485
G01 X-57.3241 Y50.0089
G01 X-57.3259 Y50.0145
G01 X-57.3468 Y50.0732
G01 X-57.3491 Y50.0787
G01 X-57.3757 Y50.1350
G01 X-57.3785 Y50.1402
G01 X-57.4106 Y50.1936
G01 X-57.4138 Y50.1985
G01 X-57.4509 Y50.2486
G01 X-57.4547 Y50.2531
G01 X-57.4965 Y50.2993
G01 X-57.5007 Y50.3035
G01 X-57.5469 Y50.3453
G01 X-57.5514 Y50.3491
G01 X-57.6015 Y50.3862
G01 X-57.6064 Y50.3894
G01 X-57.6598 Y50.4215
G01 X-57.6650 Y50.4243
G01 X-57.7213 Y50.4509
G01 X-57.7268 Y50.4532
G01 X-57.7855 Y50.4741
G01 X-57.7911 Y50.4759
G01 X-57.8515 Y50.4910
G01 X-57.8573 Y50.4921
G01 X-57.9190 Y50.5013
G01 X-57.9248 Y50.5019
G01 X-57.9871 Y50.5049
G01 X-57.9929 Y50.5049
G01 X-58.0552 Y50.5019
G01 X-58.0610 Y50.5013
G01 X-58.1227 Y50.4921
G01 X-58.1285 Y50.4910
G01 X-58.1889 Y50.4759
G01 X-58.1945 Y50.4741
G01 X-58.2532 Y50.4532
G01 X-58.2587 Y50.4509
G01 X-58.3150 Y50.4243
G01 X-58.3202 Y50.4215
G01 X-58.3736 Y50.3894
G01 X-58.3785 Y50.3862
G01 X-58.4286 Y50.3491
G01 X-58.4331 Y50.3453
G01 X-58.4793 Y50.3035
G01 X-58.4835 Y50.2993
G01 X-58.5253 Y50.2531
G01 X-58.5291 Y50.2486
G01 X-58.5662 Y50.1985
G01 X-58.5694 Y50.1936
G01 X-58.6015 Y50.1402
G01 X-58.6043 Y50.1350
G01 X-58.6309 Y50.0787
G01 X-58.6332 Y50.0732
G01 X-58.6541 Y50.0145
G01 X-58.6559 Y50.0089
G01 X-58.6710 Y49.9485
G01 X-58.6721 Y49.9427
G01 X-58.6813 Y49.8810
G01 X-58.6819 Y49.8752
G01 X-58.6849 Y49.8129
G01 X-58.6849 Y49.8071
G01 X-58.6819 Y49.7448
G01 X-58.6813 Y49.7390
G01 X-58.6721 Y49.6773
G01 X-58.6710 Y49.6715
G01 X-58.6559 Y49.6111
G01 X-58.6541 Y49.6055
G01 X-58.6332 Y49.5468
G01 X-58.6309 Y49.5413
G01 X-58.6043 Y49.4850
G01 X-58.6015 Y49.4798
G01 X-58.5694 Y49.4264
G01 X-58.5662 Y49.4215
G01 X-58.5291 Y49.3714
G01 X-58.5253 Y49.3669
G01 X-58.4835 Y49.3207
G01 X-58.4793 Y49.3165
G01 X-58.4331 Y49.2747
G01 X-58.4286 Y49.2709
G01 X-58.3785 Y49.2338
G01 X-58.3736 Y49.2306
G01 X-58.3202 Y49.1985
G01 X-58.3150 Y49.1957
G01 X-58.2587 Y49.1691
G01 X-58.2532 Y49.1668
G01 X-58.1945 Y49.1459
G01 X-58.1889 Y49.1441
G01 X-58.1285 Y49.1290
G01 X-58.1227 Y49.1279
G01 X-58.0610 Y49.1187
G01 X-58.0552 Y49.1181
G01 X-57.9929 Y49.1151
G01 X-57.9871 Y49.1151
G01 X-57.9248 Y49.1181
G01 X-57.9190 Y49.1187
G01 X-57.8573 Y49.1279
G01 X-57.8515 Y49.1290
G01 X-57.7911 Y49.1441
G01 X-57.7855 Y49.1459
G01 X-57.7268 Y49.1668
G01 X-57.7213 Y49.1691
G01 X-57.6650 Y49.1957
G01 X-57.6598 Y49.1985
G01 X-57.6064 Y49.2306
G01 X-57.6015 Y49.2338
G01 X-57.5514 Y49.2709
G01 X-57.5469 Y49.2747
G01 X-57.5007 Y49.3165
G01 X-57.4965 Y49.3207
G01 X-57.4547 Y49.3669
G01 X-57.4509 Y49.3714
G01 X-57.4138 Y49.4215
G01 X-57.4106 Y49.4264
G01 X-57.3785 Y49.4798
G01 X-57.3757 Y49.4850
G01 X-57.3491 Y49.5413
G01 X-57.3468 Y49.5468
G01 X-57.3259 Y49.6055
G01 X-57.3241 Y49.6111
G01 X-57.3090 Y49.6715
G01 X-57.3079 Y49.6773
G01 X-57.2987 Y49.7390
G01 X-57.2981 Y49.7448
G01 X-57.2951 Y49.8071
G01 X-57.2951 Y49.8129
G00 Z2.5000
G00 X-54.7551 Y49.8129
G01 F50.00
G01 Z-0.0567
G01 F100.00
G01 X-54.7581 Y49.8752
G01 X-54.7587 Y49.8810
G01 X-54.7679 Y49.9427
G01 X-54.7690 Y49.9485
G01 X-54.7841 Y50.0089
G01 X-54.7859 Y50.0145
G01 X-54.8068 Y50.0732
G01 X-54.8091 Y50.0787
G01 X-54.8357 Y50.1350
G01 X-54.8385 Y50.1402
G01 X-54.8706 Y50.1936
G01 X-54.8738 Y50.1985
G01 X-54.9109 Y50.2486
G01 X-54.9147 Y50.2531
G01 X-54.9565 Y50.2993
G01 X-54.9607 Y50.3035
G01 X-55.0069 Y50.3453
G01 X-55.0114 Y50.3491
G01 X-55.0615 Y50.3862
G01 X-55.0664 Y50.3894
G01 X-55.1198 Y50.4215
G01 X-55.1250 Y50.4243
G01 X-55.1813 Y50.4509
G01 X-55.1868 Y50.4532
G01 X-55.2455 Y50.4741
G01 X-55.2511 Y50.4759
G01 X-55.3115 Y50.4910
G01 X-55.3173 Y50.4921
G01 X-55.3790 Y50.5013
G01 X-55.3848 Y50.5019
G01 X-55.4471 Y50.5049
G01 X-55.4529 Y50.5049
G01 X-55.5152 Y50.5019
G01 X-55.5210 Y50.5013
G01 X-55.5827 Y50.4921
G01 X-55.5885 Y50.4910
G01 X-55.6489 Y50.4759
G01 X-55.6545 Y50.4741
G01 X-55.7132 Y50.4532
G01 X-55.7187 Y50.4509
G01 X-55.7750 Y50.4243
G01 X-55.7802 Y50.4215
G01 X-55.8336 Y50.3894
G01 X-55.8385 Y50.3862
G01 X-55.8886 Y50.3491
G01 X-55.8931 Y50.3453
G01 X-55.9393 Y50.3035
G01 X-55.9435 Y50.2993
G01 X-55.9853 Y50.2531
G01 X-55.9891 Y50.2486
G01 X-56.0262 Y50.1985
G01 X-56.0294 Y50.1936
G01 X-56.0615 Y50.1402
G01 X-56.0643 Y50.1350
G01 X-56.0909 Y50.0787
G01 X-56.0932 Y50.0732
G01 X-56.1141 Y50.0145
G01 X-56.1159 Y50.0089
G01 X-56.1310 Y49.9485
G01 X-56.1321 Y49.9427
G01 X-56.1413 Y49.8810
G01 X-56.1419 Y49.8752
G01 X-56.1449 Y49.8129
G01 X-56.1449 Y49.8071
G01 X-56.1419 Y49.7448
G01 X-56.1413 Y49.7390
G01 X-56.1321 Y49.6773
G01 X-56.1310 Y49.6715
G01 X-56.1159 Y49.6111
G01 X-56.1141 Y49.6055
G01 X-56.0932 Y49.5468
G01 X-56.0909 Y49.5413
G01 X-56.0643 Y49.4850
G01 X-56.0615 Y49.4798
G01 X-56.0294 Y49.4264
G01 X-56.0262 Y49.4215
G01 X-55.9891 Y49.3714
G01 X-55.9853 Y49.3669
G01 X-55.9435 Y49.3207
G01 X-55.9393 Y49.3165
G01 X-55.8931 Y49.2747
G01 X-55.8886 Y49.2709
G01 X-55.8385 Y49.2338
G01 X-55.8336 Y49.2306
G01 X-55.7802 Y49.1985
G01 X-55.7750 Y49.1957
G01 X-55.7187 Y49.1691
G01 X-55.7132 Y49.1668
G01 X-55.6545 Y49.1459
G01 X-55.6489 Y49.1441
G01 X-55.5885 Y49.1290
G01 X-55.5827 Y49.1279
G01 X-55.5210 Y49.1187
G01 X-55.5152 Y49.1181
G01 X-55.4529 Y49.1151
G01 X-55.4471 Y49.1151
G01 X-55.3848 Y49.1181
G01 X-55.3790 Y49.1187
G01 X-55.3173 Y49.1279
G01 X-55.3115 Y49.1290
G01 X-55.2511 Y49.1441
G01 X-55.2455 Y49.1459
G01 X-55.1868 Y49.1668
G01 X-55.1813 Y49.1691
G01 X-55.1250 Y49.1957
G01 X-55.1198 Y49.1985
G01 X-55.0664 Y49.2306
G01 X-55.0615 Y49.2338
G01 X-55.0114 Y49.2709
G01 X-55.0069 Y49.2747
G01 X-54.9607 Y49.3165
G01 X-54.9565 Y49.3207
G01 X-54.9147 Y49.3669
G01 X-54.9109 Y49.3714
G01 X-54.8738 Y49.4215
G01 X-54.8706 Y49.4264
G01 X-54.8385 Y49.4798
G01 X-54.8357 Y49.4850
G01 X-54.8091 Y49.5413
G01 X-54.8068 Y49.5468
G01 X-54.7859 Y49.6055
G01 X-54.7841 Y49.6111
G01 X-54.7690 Y49.6715
G01 X-54.7679 Y49.6773
G01 X-54.7587 Y49.7390
G01 X-54.7581 Y49.7448
G01 X-54.7551 Y49.8071
G01 X-54.7551 Y49.8129
G00 Z2.5000
G00 X-52.2151 Y49.8129
G01 F50.00
G01 Z-0.0567
G01 F100.00
G01 X-52.2181 Y49.8752
G01 X-52.2187 Y49.8810
G01 X-52.2279 Y49.9427
G01 X-52.2290 Y49.9485
G01 X-52.2441 Y50.0089
G01 X-52.2459 Y50.0145
G01 X-52.2668 Y50.0732
G01 X-52.2691 Y50.0787
G01 X-52.2957 Y50.1350
G01 X-52.2985 Y50.1402
G01 X-52.3306 Y50.1936
G01 X-52.3338 Y50.1985
G01 X-52.3709 Y50.2486
G01 X-52.3747 Y50.2531
G01 X-52.4165 Y50.2993
G01 X-52.4207 Y50.3035
G01 X-52.4669 Y50.3453
G01 X-52.4714 Y50.3491
G01 X-52.5215 Y50.3862
G01 X-52.5264 Y50.3894
G01 X-52.5798 Y50.4215
G01 X-52.5850 Y50.4243
G01 X-52.6413 Y50.4509
G01 X-52.6468 Y50.4532
G01 X-52.7055 Y50.4741
G01 X-52.7111 Y50.4759
G01 X-52.7715 Y50.4910
G01 X-52.7773 Y50.4921
G01 X-52.8390 Y50.5013
G01 X-52.8448 Y50.5019
G01 X-52.9071 Y50.5049
G01 X-52.9129 Y50.5049
G01 X-52.9752 Y50.5019
G01 X-52.9810 Y50.5013
G01 X-53.0427 Y50.4921
G01 X-53.0485 Y50.4910
G01 X-53.1089 Y50.4759
G01 X-53.1145 Y50.4741
G01 X-53.1732 Y50.4532
G01 X-53.1787 Y50.4509
G01 X-53.2350 Y50.4243
G01 X-53.2402 Y50.4215
G01 X-53.2936 Y50.3894
G01 X-53.2985 Y50.3862
G01 X-53.3486 Y50.3491
G01 X-53.3531 Y50.3453
G01 X-53.3993 Y50.3035
G01 X-53.4035 Y50.2993
G01 X-53.4453 Y50.2531
G01 X-53.4491 Y50.2486
G01 X-53.4862 Y50.1985
G01 X-53.4894 Y50.1936
G01 X-53.5215 Y50.1402
G01 X-53.5243 Y50.1350
G01 X-53.5509 Y50.0787
G01 X-53.5532 Y50.0732
G01 X-53.5741 Y50.0145
G01 X-53.5759 Y50.0089
G01 X-53.5910 Y49.9485
G01 X-53.5921 Y49.9427
G01 X-53.6013 Y49.8810
G01 X-53.6019 Y49.8752
G01 X-53.6049 Y49.8129
G01 X-53.6049 Y49.8071
G01 X-53.6019 Y49.7448
G01 X-53.6013 Y49.7390
G01 X-53.5921 Y49.6773
G01 X-53.5910 Y49.6715
G01 X-53.5759 Y49.6111
G01 X-53.5741 Y49.6055
G01 X-53.5532 Y49.5468
G01 X-53.5509 Y49.5413
G01 X-53.5243 Y49.4850
G01 X-53.5215 Y49.4798
G01 X-53.4894 Y49.4264
G01 X-53.4862 Y49.4215
G01 X-53.4491 Y49.3714
G01 X-53.4453 Y49.3669
G01 X-53.4035 Y49.3207
G01 X-53.3993 Y49.3165
G01 X-53.3531 Y49.2747
G01 X-53.3486 Y49.2709
G01 X-53.2985 Y49.2338
G01 X-53.2936 Y49.2306
G01 X-53.2402 Y49.1985
G01 X-53.2350 Y49.1957
G01 X-53.1787 Y49.1691
G01 X-53.1732 Y49.1668
G01 X-53.1145 Y49.1459
G01 X-53.1089 Y49.1441
G01 X-53.0485 Y49.1290
G01 X-53.0427 Y49.1279
G01 X-52.9810 Y49.1187
G01 X-52.9752 Y49.1181
G01 X-52.9129 Y49.1151
G01 X-52.9071 Y49.1151
G01 X-52.8448 Y49.1181
G01 X-52.8390 Y49.1187
G01 X-52.7773 Y49.1279
G01 X-52.7715 Y49.1290
G01 X-52.7111 Y49.1441
G01 X-52.7055 Y49.1459
G01 X-52.6468 Y49.1668
G01 X-52.6413 Y49.1691
G01 X-52.5850 Y49.1957
G01 X-52.5798 Y49.1985
G01 X-52.5264 Y49.2306
G01 X-52.5215 Y49.2338
G01 X-52.4714 Y49.2709
G01 X-52.4669 Y49.2747
G01 X-52.4207 Y49.3165
G01 X-52.4165 Y49.3207
G01 X-52.3747 Y49.3669
G01 X-52.3709 Y49.3714
G01 X-52.3338 Y49.4215
G01 X-52.3306 Y49.4264
G01 X-52.2985 Y49.4798
G01 X-52.2957 Y49.4850
G01 X-52.2691 Y49.5413
G01 X-52.2668 Y49.5468
G01 X-52.2459 Y49.6055
G01 X-52.2441 Y49.6111
G01 X-52.2290 Y49.6715
G01 X-52.2279 Y49.6773
G01 X-52.2187 Y49.7390
G01 X-52.2181 Y49.7448
G01 X-52.2151 Y49.8071
G01 X-52.2151 Y49.8129
G00 Z2.5000
G00 X-49.6751 Y49.8129
G01 F50.00
G01 Z-0.0567
G01 F100.00
G01 X-49.6781 Y49.8752
G01 X-49.6787 Y49.8810
G01 X-49.6879 Y49.9427
G01 X-49.6890 Y49.9485
G01 X-49.7041 Y50.0089
G01 X-49.7059 Y50.0145
G01 X-49.7268 Y50.0732
G01 X-49.7291 Y50.0787
G01 X-49.7557 Y50.1350
G01 X-49.7585 Y50.1402
G01 X-49.7906 Y50.1936
G01 X-49.7938 Y50.1985
G01 X-49.8309 Y50.2486
G01 X-49.8347 Y50.2531
G01 X-49.8765 Y50.2993
G01 X-49.8807 Y50.3035
G01 X-49.9269 Y50.3453
G01 X-49.9314 Y50.3491
G01 X-49.9815 Y50.3862
G01 X-49.9864 Y50.3894
G01 X-50.0398 Y50.4215
G01 X-50.0450 Y50.4243
G01 X-50.1013 Y50.4509
G01 X-50.1068 Y50.4532
G01 X-50.1655 Y50.4741
G01 X-50.1711 Y50.4759
G01 X-50.2315 Y50.4910
G01 X-50.2373 Y50.4921
G01 X-50.2990 Y50.5013
G01 X-50.3048 Y50.5019
G01 X-50.3671 Y50.5049
G01 X-50.3729 Y50.5049
G01 X-50.4352 Y50.5019
G01 X-50.4410 Y50.5013
G01 X-50.5027 Y50.4921
G01 X-50.5085 Y50.4910
G01 X-50.5689 Y50.4759
G01 X-50.5745 Y50.4741
G01 X-50.6332 Y50.4532
G01 X-50.6387 Y50.4509
G01 X-50.6950 Y50.4243
G01 X-50.7002 Y50.4215
G01 X-50.7536 Y50.3894
G01 X-50.7585 Y50.3862
G01 X-50.8086 Y50.3491
G01 X-50.8131 Y50.3453
G01 X-50.8593 Y50.3035
G01 X-50.8635 Y50.2993
G01 X-50.9053 Y50.2531
G01 X-50.9091 Y50.2486
G01 X-50.9462 Y50.1985
G01 X-50.9494 Y50.1936
G01 X-50.9815 Y50.1402
G01 X-50.9843 Y50.1350
G01 X-51.0109 Y50.0787
G01 X-51.0132 Y50.0732
G01 X-51.0341 Y50.0145
G01 X-51.0359 Y50.0089
G01 X-51.0510 Y49.9485
G01 X-51.0521 Y49.9427
G01 X-51.0613 Y49.8810
G01 X-51.0619 Y49.8752
G01 X-51.0649 Y49.8129
G01 X-51.0649 Y49.8071
G01 X-51.0619 Y49.7448
G01 X-51.0613 Y49.7390
G01 X-51.0521 Y49.6773
G01 X-51.0510 Y49.6715
G01 X-51.0359 Y49.6111
G01 X-51.0341 Y49.6055
G01 X-51.0132 Y49.5468
G01 X-51.0109 Y49.5413
G01 X-50.9843 Y49.4850
G01 X-50.9815 Y49.4798
G01 X-50.9494 Y49.4264
G01 X-50.9462 Y49.4215
G01 X-50.9091 Y49.3714
G01 X-50.9053 Y49.3669
G01 X-50.8635 Y49.3207
G01 X-50.8593 Y49.3165
G01 X-50.8131 Y49.2747
G01 X-50.8086 Y49.2709
G01 X-50.7585 Y49.2338
G01 X-50.7536 Y49.2306
G01 X-50.7002 Y49.1985
G01 X-50.6950 Y49.1957
G01 X-50.6387 Y49.1691
G01 X-50.6332 Y49.1668
G01 X-50.5745 Y49.1459
G01 X-50.5689 Y49.1441
G01 X-50.5085 Y49.1290
G01 X-50.5027 Y49.1279
G01 X-50.4410 Y49.1187
G01 X-50.4352 Y49.1181
G01 X-50.3729 Y49.1151
G01 X-50.3671 Y49.1151
G01 X-50.3048 Y49.1181
G01 X-50.2990 Y49.1187
G01 X-50.2373 Y49.1279
G01 X-50.2315 Y49.1290
G01 X-50.1711 Y49.1441
G01 X-50.1655 Y49.1459
G01 X-50.1068 Y49.1668
G01 X-50.1013 Y49.1691
G01 X-50.0450 Y49.1957
G01 X-50.0398 Y49.1985
G01 X-49.9864 Y49.2306
G01 X-49.9815 Y49.2338
G01 X-49.9314 Y49.2709
G01 X-49.9269 Y49.2747
G01 X-49.8807 Y49.3165
G01 X-49.8765 Y49.3207
G01 X-49.8347 Y49.3669
G01 X-49.8309 Y49.3714
G01 X-49.7938 Y49.4215
G01 X-49.7906 Y49.4264
G01 X-49.7585 Y49.4798
G01 X-49.7557 Y49.4850
G01 X-49.7291 Y49.5413
G01 X-49.7268 Y49.5468
G01 X-49.7059 Y49.6055
G01 X-49.7041 Y49.6111
G01 X-49.6890 Y49.6715
G01 X-49.6879 Y49.6773
G01 X-49.6787 Y49.7390
G01 X-49.6781 Y49.7448
G01 X-49.6751 Y49.8071
G01 X-49.6751 Y49.8129
G00 Z2.5000
G00 X-47.1351 Y49.8129
G01 F50.00
G01 Z-0.0567
G01 F100.00
G01 X-47.1381 Y49.8752
G01 X-47.1387 Y49.8810
G01 X-47.1479 Y49.9427
G01 X-47.1490 Y49.9485
G01 X-47.1641 Y50.0089
G01 X-47.1659 Y50.0145
G01 X-47.1868 Y50.0732
G01 X-47.1891 Y50.0787
G01 X-47.2157 Y50.1350
G01 X-47.2185 Y50.1402
G01 X-47.2506 Y50.1936
G01 X-47.2538 Y50.1985
G01 X-47.2909 Y50.2486
G01 X-47.2947 Y50.2531
G01 X-47.3365 Y50.2993
G01 X-47.3407 Y50.3035
G01 X-47.3869 Y50.3453
G01 X-47.3914 Y50.3491
G01 X-47.4415 Y50.3862
G01 X-47.4464 Y50.3894
G01 X-47.4998 Y50.4215
G01 X-47.5050 Y50.4243
G01 X-47.5613 Y50.4509
G01 X-47.5668 Y50.4532
G01 X-47.6255 Y50.4741
G01 X-47.6311 Y50.4759
G01 X-47.6915 Y50.4910
G01 X-47.6973 Y50.4921
G01 X-47.7590 Y50.5013
G01 X-47.7648 Y50.5019
G01 X-47.8271 Y50.5049
G01 X-47.8329 Y50.5049
G01 X-47.8952 Y50.5019
G01 X-47.9010 Y50.5013
G01 X-47.9627 Y50.4921
G01 X-47.9685 Y50.4910
G01 X-48.0289 Y50.4759
G01 X-48.0345 Y50.4741
G01 X-48.0932 Y50.4532
G01 X-48.0987 Y50.4509
G01 X-48.1550 Y50.4243
G01 X-48.1602 Y50.4215
G01 X-48.2136 Y50.3894
G01 X-48.2185 Y50.3862
G01 X-48.2686 Y50.3491
G01 X-48.2731 Y50.3453
G01 X-48.3193 Y50.3035
G01 X-48.3235 Y50.2993
G01 X-48.3653 Y50.2531
G01 X-48.3691 Y50.2486
G01 X-48.4062 Y50.1985
G01 X-48.4094 Y50.1936
G01 X-48.4415 Y50.1402
G01 X-48.4443 Y50.1350
G01 X-48.4709 Y50.0787
G01 X-48.4732 Y50.0732
G01 X-48.4941 Y50.0145
G01 X-48.4959 Y50.0089
G01 X-48.5110 Y49.9485
G01 X-48.5121 Y49.9427
G01 X-48.5213 Y49.8810
G01 X-48.5219 Y49.8752
G01 X-48.5249 Y49.8129
G01 X-48.5249 Y49.8071
G01 X-48.5219 Y49.7448
G01 X-48.5213 Y49.7390
G01 X-48.5121 Y49.6773
G01 X-48.5110 Y49.6715
G01 X-48.4959 Y49.6111
G01 X-48.4941 Y49.6055
G01 X-48.4732 Y49.5468
G01 X-48.4709 Y49.5413
G01 X-48.4443 Y49.4850
G01 X-48.4415 Y49.4798
G01 X-48.4094 Y49.4264
G01 X-48.4062 Y49.4215
G01 X-48.3691 Y49.3714
G01 X-48.3653 Y49.3669
G01 X-48.3235 Y49.3207
G01 X-48.3193 Y49.3165
G01 X-48.2731 Y49.2747
G01 X-48.2686 Y49.2709
G01 X-48.2185 Y49.2338
G01 X-48.2136 Y49.2306
G01 X-48.1602 Y49.1985
G01 X-48.1550 Y49.1957
G01 X-48.0987 Y49.1691
G01 X-48.0932 Y49.1668
G01 X-48.0345 Y49.1459
G01 X-48.0289 Y49.1441
G01 X-47.9685 Y49.1290
G01 X-47.9627 Y49.1279
G01 X-47.9010 Y49.1187
G01 X-47.8952 Y49.1181
G01 X-47.8329 Y49.1151
G01 X-47.8271 Y49.1151
G01 X-47.7648 Y49.1181
G01 X-47.7590 Y49.1187
G01 X-47.6973 Y49.1279
G01 X-47.6915 Y49.1290
G01 X-47.6311 Y49.1441
G01 X-47.6255 Y49.1459
G01 X-47.5668 Y49.1668
G01 X-47.5613 Y49.1691
G01 X-47.5050 Y49.1957
G01 X-47.4998 Y49.1985
G01 X-47.4464 Y49.2306
G01 X-47.4415 Y49.2338
G01 X-47.3914 Y49.2709
G01 X-47.3869 Y49.2747
G01 X-47.3407 Y49.3165
G01 X-47.3365 Y49.3207
G01 X-47.2947 Y49.3669
G01 X-47.2909 Y49.3714
G01 X-47.2538 Y49.4215
G01 X-47.2506 Y49.4264
G01 X-47.2185 Y49.4798
G01 X-47.2157 Y49.4850
G01 X-47.1891 Y49.5413
G01 X-47.1868 Y49.5468
G01 X-47.1659 Y49.6055
G01 X-47.1641 Y49.6111
G01 X-47.1490 Y49.6715
G01 X-47.1479 Y49.6773
G01 X-47.1387 Y49.7390
G01 X-47.1381 Y49.7448
G01 X-47.1351 Y49.8071
G01 X-47.1351 Y49.8129
G00 Z2.5000
G00 X-44.5951 Y49.8129
G01 F50.00
G01 Z-0.0567
G01 F100.00
G01 X-44.5981 Y49.8752
G01 X-44.5987 Y49.8810
G01 X-44.6079 Y49.9427
G01 X-44.6090 Y49.9485
G01 X-44.6241 Y50.0089
G01 X-44.6259 Y50.0145
G01 X-44.6468 Y50.0732
G01 X-44.6491 Y50.0787
G01 X-44.6757 Y50.1350
G01 X-44.6785 Y50.1402
G01 X-44.7106 Y50.1936
G01 X-44.7138 Y50.1985
G01 X-44.7509 Y50.2486
G01 X-44.7547 Y50.2531
G01 X-44.7965 Y50.2993
G01 X-44.8007 Y50.3035
G01 X-44.8469 Y50.3453
G01 X-44.8514 Y50.3491
G01 X-44.9015 Y50.3862
G01 X-44.9064 Y50.3894
G01 X-44.9598 Y50.4215
G01 X-44.9650 Y50.4243
G01 X-45.0213 Y50.4509
G01 X-45.0268 Y50.4532
G01 X-45.0855 Y50.4741
G01 X-45.0911 Y50.4759
G01 X-45.1515 Y50.4910
G01 X-45.1573 Y50.4921
G01 X-45.2190 Y50.5013
G01 X-45.2248 Y50.5019
G01 X-45.2871 Y50.5049
G01 X-45.2929 Y50.5049
G01 X-45.3552 Y50.5019
G01 X-45.3610 Y50.5013
G01 X-45.4227 Y50.4921
G01 X-45.4285 Y50.4910
G01 X-45.4889 Y50.4759
G01 X-45.4945 Y50.4741
G01 X-45.5532 Y50.4532
G01 X-45.5587 Y50.4509
G01 X-45.6150 Y50.4243
G01 X-45.6202 Y50.4215
G01 X-45.6736 Y50.3894
G01 X-45.6785 Y50.3862
G01 X-45.7286 Y50.3491
G01 X-45.7331 Y50.3453
G01 X-45.7793 Y50.3035
G01 X-45.7835 Y50.2993
G01 X-45.8253 Y50.2531
G01 X-45.8291 Y50.2486
G01 X-45.8662 Y50.1985
G01 X-45.8694 Y50.1936
G01 X-45.9015 Y50.1402
G01 X-45.9043 Y50.1350
G01 X-45.9309 Y50.0787
G01 X-45.9332 Y50.0732
G01 X-45.9541 Y50.0145
G01 X-45.9559 Y50.0089
G01 X-45.9710 Y49.9485
G01 X-45.9721 Y49.9427
G01 X-45.9813 Y49.8810
G01 X-45.9819 Y49.8752
G01 X-45.9849 Y49.8129
G01 X-45.9849 Y49.8071
G01 X-45.9819 Y49.7448
G01 X-45.9813 Y49.7390
G01 X-45.9721 Y49.6773
G01 X-45.9710 Y49.6715
G01 X-45.9559 Y49.6111
G01 X-45.9541 Y49.6055
G01 X-45.9332 Y49.5468
G01 X-45.9309 Y49.5413
G01 X-45.9043 Y49.4850
G01 X-45.9015 Y49.4798
G01 X-45.8694 Y49.4264
G01 X-45.8662 Y49.4215
G01 X-45.8291 Y49.3714
G01 X-45.8253 Y49.3669
G01 X-45.7835 Y49.3207
G01 X-45.7793 Y49.3165
G01 X-45.7331 Y49.2747
G01 X-45.7286 Y49.2709
G01 X-45.6785 Y49.2338
G01 X-45.6736 Y49.2306
G01 X-45.6202 Y49.1985
G01 X-45.6150 Y49.1957
G01 X-45.5587 Y49.1691
G01 X-45.5532 Y49.1668
G01 X-45.4945 Y49.1459
G01 X-45.4889 Y49.1441
G01 X-45.4285 Y49.1290
G01 X-45.4227 Y49.1279
G01 X-45.3610 Y49.1187
G01 X-45.3552 Y49.1181
G01 X-45.2929 Y49.1151
G01 X-45.2871 Y49.1151
G01 X-45.2248 Y49.1181
G01 X-45.2190 Y49.1187
G01 X-45.1573 Y49.1279
G01 X-45.1515 Y49.1290
G01 X-45.0911 Y49.1441
G01 X-45.0855 Y49.1459
G01 X-45.0268 Y49.1668
G01 X-45.0213 Y49.1691
G01 X-44.9650 Y49.1957
G01 X-44.9598 Y49.1985
G01 X-44.9064 Y49.2306
G01 X-44.9015 Y49.2338
G01 X-44.8514 Y49.2709
G01 X-44.8469 Y49.2747
G01 X-44.8007 Y49.3165
G01 X-44.7965 Y49.3207
G01 X-44.7547 Y49.3669
G01 X-44.7509 Y49.3714
G01 X-44.7138 Y49.4215
G01 X-44.7106 Y49.4264
G01 X-44.6785 Y49.4798
G01 X-44.6757 Y49.4850
G01 X-44.6491 Y49.5413
G01 X-44.6468 Y49.5468
G01 X-44.6259 Y49.6055
G01 X-44.6241 Y49.6111
G01 X-44.6090 Y49.6715
G01 X-44.6079 Y49.6773
G01 X-44.5987 Y49.7390
G01 X-44.5981 Y49.7448
G01 X-44.5951 Y49.8071
G01 X-44.5951 Y49.8129
G00 Z2.5000
G00 X-39.5151 Y49.8129
G01 F50.00
G01 Z-0.0567
G01 F100.00
G01 X-39.5181 Y49.8752
G01 X-39.5187 Y49.8810
G01 X-39.5279 Y49.9427
G01 X-39.5290 Y49.9485
G01 X-39.5441 Y50.0089
G01 X-39.5459 Y50.0145
G01 X-39.5668 Y50.0732
G01 X-39.5691 Y50.0787
G01 X-39.5957 Y50.1350
G01 X-39.5985 Y50.1402
G01 X-39.6306 Y50.1936
G01 X-39.6338 Y50.1985
G01 X-39.6709 Y50.2486
G01 X-39.6747 Y50.2531
G01 X-39.7165 Y50.2993
G01 X-39.7207 Y50.3035
G01 X-39.7669 Y50.3453
G01 X-39.7714 Y50.3491
G01 X-39.8215 Y50.3862
G01 X-39.8264 Y50.3894
G01 X-39.8798 Y50.4215
G01 X-39.8850 Y50.4243
G01 X-39.9413 Y50.4509
G01 X-39.9468 Y50.4532
G01 X-40.0055 Y50.4741
G01 X-40.0111 Y50.4759
G01 X-40.0715 Y50.4910
G01 X-40.0773 Y50.4921
G01 X-40.1390 Y50.5013
G01 X-40.1448 Y50.5019
G01 X-40.2071 Y50.5049
G01 X-40.2129 Y50.5049
G01 X-40.2752 Y50.5019
G01 X-40.2810 Y50.5013
G01 X-40.3427 Y50.4921
G01 X-40.3485 Y50.4910
G01 X-40.4089 Y50.4759
G01 X-40.4145 Y50.4741
G01 X-40.4732 Y50.4532
G01 X-40.4787 Y50.4509
G01 X-40.5350 Y50.4243
G01 X-40.5402 Y50.4215
G01 X-40.5936 Y50.3894
G01 X-40.5985 Y50.3862
G01 X-40.6486 Y50.3491
G01 X-40.6531 Y50.3453
G01 X-40.6993 Y50.3035
G01 X-40.7035 Y50.2993
G01 X-40.7453 Y50.2531
G01 X-40.7491 Y50.2486
G01 X-40.7862 Y50.1985
G01 X-40.7894 Y50.1936
G01 X-40.8215 Y50.1402
G01 X-40.8243 Y50.1350
G01 X-40.8509 Y50.0787
G01 X-40.8532 Y50.0732
G01 X-40.8741 Y50.0145
G01 X-40.8759 Y50.0089
G01 X-40.8910 Y49.9485
G01 X-40.8921 Y49.9427
G01 X-40.9013 Y49.8810
G01 X-40.9019 Y49.8752
G01 X-40.9049 Y49.8129
G01 X-40.9049 Y49.8071
G01 X-40.9019 Y49.7448
G01 X-40.9013 Y49.7390
G01 X-40.8921 Y49.6773
G01 X-40.8910 Y49.6715
G01 X-40.8759 Y49.6111
G01 X-40.8741 Y49.6055
G01 X-40.8532 Y49.5468
G01 X-40.8509 Y49.5413
G01 X-40.8243 Y49.4850
G01 X-40.8215 Y49.4798
G01 X-40.7894 Y49.4264
G01 X-40.7862 Y49.4215
G01 X-40.7491 Y49.3714
G01 X-40.7453 Y49.3669
G01 X-40.7035 Y49.3207
G01 X-40.6993 Y49.3165
G01 X-40.6531 Y49.2747
G01 X-40.6486 Y49.2709
G01 X-40.5985 Y49.2338
G01 X-40.5936 Y49.2306
G01 X-40.5402 Y49.1985
G01 X-40.5350 Y49.1957
G01 X-40.4787 Y49.1691
G01 X-40.4732 Y49.1668
G01 X-40.4145 Y49.1459
G01 X-40.4089 Y49.1441
G01 X-40.3485 Y49.1290
G01 X-40.3427 Y49.1279
G01 X-40.2810 Y49.1187
G01 X-40.2752 Y49.1181
G01 X-40.2129 Y49.1151
G01 X-40.2071 Y49.1151
G01 X-40.1448 Y49.1181
G01 X-40.1390 Y49.1187
G01 X-40.0773 Y49.1279
G01 X-40.0715 Y49.1290
G01 X-40.0111 Y49.1441
G01 X-40.0055 Y49.1459
G01 X-39.9468 Y49.1668
G01 X-39.9413 Y49.1691
G01 X-39.8850 Y49.1957
G01 X-39.8798 Y49.1985
G01 X-39.8264 Y49.2306
G01 X-39.8215 Y49.2338
G01 X-39.7714 Y49.2709
G01 X-39.7669 Y49.2747
G01 X-39.7207 Y49.3165
G01 X-39.7165 Y49.3207
G01 X-39.6747 Y49.3669
G01 X-39.6709 Y49.3714
G01 X-39.6338 Y49.4215
G01 X-39.6306 Y49.4264
G01 X-39.5985 Y49.4798
G01 X-39.5957 Y49.4850
G01 X-39.5691 Y49.5413
G01 X-39.5668 Y49.5468
