(G-CODE GENERATED BY FLATCAM v8.991 - www.flatcam.org - Version Date: 2019/12/27)

(Name: Proyecto-Embebidos-1-2 - CADCAM Drill_1.DRL_cnc)
(Type: G-code from Excellon)
(Units: MM)

(Created on Friday, 15 November 2024 at 15:45)

(Feedrate: 250.0 mm/min)
(Feedrate rapids 1500.0 mm/min)

(Z_Cut: -1.8 mm)
(Z_Move: 2.0 mm)
(Z Toolchange: 15.0 mm)
(X,Y Toolchange: 0.0000, 0.0000 mm)
(Z Start: None mm)
(Z End: 0.6 mm)
(Steps per circle: 64)
(Preprocessor Excellon: default)

(X range:  -90.7500 ...   -3.2500  mm)
(Y range:    3.1920 ...   84.7500  mm)

(Spindle Speed: None RPM)
G21
G90
G94




G01 F250.00
G00 Z2.0000

M03
G00 X-19.8900 Y34.5700
G01 Z-1.8000
G01 Z0
G00 Z2.0000
G00 X-22.4300 Y34.5700
G01 Z-1.8000
G01 Z0
G00 Z2.0000
G00 X-24.9700 Y34.5700
G01 Z-1.8000
G01 Z0
G00 Z2.0000
G00 X-27.5100 Y34.5700
G01 Z-1.8000
G01 Z0
G00 Z2.0000
G00 X-30.0500 Y34.5700
G01 Z-1.8000
G01 Z0
G00 Z2.0000
G00 X-32.5900 Y34.5700
G01 Z-1.8000
G01 Z0
G00 Z2.0000
G00 X-35.1300 Y34.5700
G01 Z-1.8000
G01 Z0
G00 Z2.0000
G00 X-37.6700 Y34.5700
G01 Z-1.8000
G01 Z0
G00 Z2.0000
G00 X-40.2100 Y34.5700
G01 Z-1.8000
G01 Z0
G00 Z2.0000
G00 X-42.7500 Y34.5700
G01 Z-1.8000
G01 Z0
G00 Z2.0000
G00 X-45.2900 Y34.5700
G01 Z-1.8000
G01 Z0
G00 Z2.0000
G00 X-47.8300 Y34.5700
G01 Z-1.8000
G01 Z0
G00 Z2.0000
G00 X-50.3700 Y34.5700
G01 Z-1.8000
G01 Z0
G00 Z2.0000
G00 X-52.9100 Y34.5700
G01 Z-1.8000
G01 Z0
G00 Z2.0000
G00 X-55.4500 Y34.5700
G01 Z-1.8000
G01 Z0
G00 Z2.0000
G00 X-57.9900 Y34.5700
G01 Z-1.8000
G01 Z0
G00 Z2.0000
G00 X-60.5300 Y34.5700
G01 Z-1.8000
G01 Z0
G00 Z2.0000
G00 X-63.0700 Y34.5700
G01 Z-1.8000
G01 Z0
G00 Z2.0000
G00 X-65.6100 Y34.5700
G01 Z-1.8000
G01 Z0
G00 Z2.0000
G00 X-68.1500 Y34.5700
G01 Z-1.8000
G01 Z0
G00 Z2.0000
G00 X-74.3100 Y37.9100
G01 Z-1.8000
G01 Z0
G00 Z2.0000
G00 X-76.8500 Y37.9100
G01 Z-1.8000
G01 Z0
G00 Z2.0000
G00 X-79.3900 Y37.9100
G01 Z-1.8000
G01 Z0
G00 Z2.0000
G00 X-81.9300 Y37.9100
G01 Z-1.8000
G01 Z0
G00 Z2.0000
G00 X-84.4700 Y37.9100
G01 Z-1.8000
G01 Z0
G00 Z2.0000
G00 X-87.0100 Y37.9100
G01 Z-1.8000
G01 Z0
G00 Z2.0000
G00 X-89.5500 Y37.9100
G01 Z-1.8000
G01 Z0
G00 Z2.0000
G00 X-89.5500 Y45.5300
G01 Z-1.8000
G01 Z0
G00 Z2.0000
G00 X-87.0100 Y45.5300
G01 Z-1.8000
G01 Z0
G00 Z2.0000
G00 X-84.4700 Y45.5300
G01 Z-1.8000
G01 Z0
G00 Z2.0000
G00 X-81.9300 Y45.5300
G01 Z-1.8000
G01 Z0
G00 Z2.0000
G00 X-79.3900 Y45.5300
G01 Z-1.8000
G01 Z0
G00 Z2.0000
G00 X-76.8500 Y45.5300
G01 Z-1.8000
G01 Z0
G00 Z2.0000
G00 X-74.3100 Y45.5300
G01 Z-1.8000
G01 Z0
G00 Z2.0000
G00 X-81.1600 Y66.3500
G01 Z-1.8000
G01 Z0
G00 Z2.0000
G00 X-78.6200 Y66.3500
G01 Z-1.8000
G01 Z0
G00 Z2.0000
G00 X-72.7200 Y68.9100
G01 Z-1.8000
G01 Z0
G00 Z2.0000
G00 X-72.7200 Y66.3700
G01 Z-1.8000
G01 Z0
G00 Z2.0000
G00 X-68.1500 Y49.8100
G01 Z-1.8000
G01 Z0
G00 Z2.0000
G00 X-65.6100 Y49.8100
G01 Z-1.8000
G01 Z0
G00 Z2.0000
G00 X-63.0700 Y49.8100
G01 Z-1.8000
G01 Z0
G00 Z2.0000
G00 X-60.5300 Y49.8100
G01 Z-1.8000
G01 Z0
G00 Z2.0000
G00 X-57.9900 Y49.8100
G01 Z-1.8000
G01 Z0
G00 Z2.0000
G00 X-55.4500 Y49.8100
G01 Z-1.8000
G01 Z0
G00 Z2.0000
G00 X-52.9100 Y49.8100
G01 Z-1.8000
G01 Z0
G00 Z2.0000
G00 X-50.3700 Y49.8100
G01 Z-1.8000
G01 Z0
G00 Z2.0000
G00 X-47.8300 Y49.8100
G01 Z-1.8000
G01 Z0
G00 Z2.0000
G00 X-45.2900 Y49.8100
G01 Z-1.8000
G01 Z0
G00 Z2.0000
G00 X-42.7500 Y49.8100
G01 Z-1.8000
G01 Z0
G00 Z2.0000
G00 X-40.2100 Y49.8100
G01 Z-1.8000
G01 Z0
G00 Z2.0000
G00 X-37.6700 Y49.8100
G01 Z-1.8000
G01 Z0
G00 Z2.0000
G00 X-35.1300 Y49.8100
G01 Z-1.8000
G01 Z0
G00 Z2.0000
G00 X-32.5900 Y49.8100
G01 Z-1.8000
G01 Z0
G00 Z2.0000
G00 X-30.0500 Y49.8100
G01 Z-1.8000
G01 Z0
G00 Z2.0000
G00 X-32.0900 Y61.1300
G01 Z-1.8000
G01 Z0
G00 Z2.0000
G00 X-40.4900 Y61.2300
G01 Z-1.8000
G01 Z0
G00 Z2.0000
G00 X-48.5800 Y61.2300
G01 Z-1.8000
G01 Z0
G00 Z2.0000
G00 X-56.5700 Y61.3300
G01 Z-1.8000
G01 Z0
G00 Z2.0000
G00 X-56.5700 Y71.4900
G01 Z-1.8000
G01 Z0
G00 Z2.0000
G00 X-48.5800 Y71.3900
G01 Z-1.8000
G01 Z0
G00 Z2.0000
G00 X-40.4900 Y71.3900
G01 Z-1.8000
G01 Z0
G00 Z2.0000
G00 X-32.0900 Y71.2900
G01 Z-1.8000
G01 Z0
G00 Z2.0000
G00 X-17.5400 Y71.5300
G01 Z-1.8000
G01 Z0
G00 Z2.0000
G00 X-15.0000 Y71.5300
G01 Z-1.8000
G01 Z0
G00 Z2.0000
G00 X-12.4600 Y71.5300
G01 Z-1.8000
G01 Z0
G00 Z2.0000
G00 X-9.9200 Y71.5300
G01 Z-1.8000
G01 Z0
G00 Z2.0000
G00 X-7.3800 Y71.5300
G01 Z-1.8000
G01 Z0
G00 Z2.0000
G00 X-7.3800 Y56.2900
G01 Z-1.8000
G01 Z0
G00 Z2.0000
G00 X-9.9200 Y56.2900
G01 Z-1.8000
G01 Z0
G00 Z2.0000
G00 X-12.4600 Y56.2900
G01 Z-1.8000
G01 Z0
G00 Z2.0000
G00 X-15.0000 Y56.2900
G01 Z-1.8000
G01 Z0
G00 Z2.0000
G00 X-17.5400 Y56.2900
G01 Z-1.8000
G01 Z0
G00 Z2.0000
G00 X-19.8900 Y49.8100
G01 Z-1.8000
G01 Z0
G00 Z2.0000
G00 X-22.4300 Y49.8100
G01 Z-1.8000
G01 Z0
G00 Z2.0000
G00 X-24.9700 Y49.8100
G01 Z-1.8000
G01 Z0
G00 Z2.0000
G00 X-27.5100 Y49.8100
G01 Z-1.8000
G01 Z0
G00 Z2.0000
G00 X-6.4300 Y25.7800
G01 Z-1.8000
G01 Z0
G00 Z2.0000
G00 X-8.9700 Y25.7800
G01 Z-1.8000
G01 Z0
G00 Z2.0000
G00 X-11.5100 Y25.7800
G01 Z-1.8000
G01 Z0
G00 Z2.0000
M05
G00 Z0.60
G00 X0.0 Y0.0

